x64 almalinux almalinux 8-gen1 almalinux:almalinux:8-gen1:8.7.2022122801 8.7.2022122801
x64 almalinux-8 almalinuxosfoundation1628089859865 8_4 almalinuxosfoundation1628089859865:almalinux-8:8_4:8.4.20210729 8.4.20210729
x64 almalinux almalinux 8-gen2 almalinux:almalinux:8-gen2:8.7.2022122801 8.7.2022122801
x64 cisco-aci-cloud-apic-virtual cisco 26_0_3-byol cisco:cisco-aci-cloud-apic-virtual:26_0_3-byol:26.0.302 26.0.302
x64 cisco-aci-cloud-apic-virtual cisco 4_2_1-byol cisco:cisco-aci-cloud-apic-virtual:4_2_1-byol:4.21.009 4.21.009
x64 postgresql jetware-srl postgresql96-ubuntu-1604 jetware-srl:postgresql:postgresql96-ubuntu-1604:1.0.170503 1.0.170503
x64 Oracle-Linux Oracle 77 Oracle:Oracle-Linux:77:7.7.3 7.7.3
x64 ntg_rocky_linux_9 ntegralinc1586961136942 ntg_rocky_linux_9 ntegralinc1586961136942:ntg_rocky_linux_9:ntg_rocky_linux_9:1.0.1 1.0.1
x64 php-7-3-with-centos-7-7-free cognosys php-7-3-with-centos-7-7-free cognosys:php-7-3-with-centos-7-7-free:php-7-3-with-centos-7-7-free:22.03.28 22.03.28
x64 cohesive-vns3-5_0_x-nate cohesive cohesive-vns3-nate-5_2_x cohesive:cohesive-vns3-5_0_x-nate:cohesive-vns3-nate-5_2_x:5.2.0401 5.2.0401
x64 biztalk360-in-azure biztalk360 biztalk360_bts2020 biztalk360:biztalk360-in-azure:biztalk360_bts2020:26.07.2021 26.07.2021
x64 powershell_on_red_hat_enterprise_linux8 askforcloudllc1651766049149 powershell_on_red_hat_enterprise_linux_8 askforcloudllc1651766049149:powershell_on_red_hat_enterprise_linux8:powershell_on_red_hat_enterprise_linux_8:7.2.5 7.2.5
x64 docker-compose-linux-stream-9 articentgroupllc1635512619530 docker-compose-linux-stream-9 articentgroupllc1635512619530:docker-compose-linux-stream-9:docker-compose-linux-stream-9:1.0.0 1.0.0
x64 glances-on-ubuntu18 apps-4-rent glances-on-ubuntu18 apps-4-rent:glances-on-ubuntu18:glances-on-ubuntu18:1.0.0 1.0.0
x64 waf barracudanetworks private-waf-hourly-teletracking1 barracudanetworks:waf:private-waf-hourly-teletracking1:11.00.015 11.00.015
x64 pimcore-on-ubuntu apps-4-rent pimcore-on-ubuntu apps-4-rent:pimcore-on-ubuntu:pimcore-on-ubuntu:1.0.0 1.0.0
x64 webmin-centos-7-8 cloud-infrastructure-services webmin-centos-7-8 cloud-infrastructure-services:webmin-centos-7-8:webmin-centos-7-8:0.0.1 0.0.1
x64 centos-stream-latest procomputers centos-stream-latest procomputers:centos-stream-latest:centos-stream-latest:8.2021.0613 8.2021.0613
x64 cv-std clearvisibility1695136446164 cv900 clearvisibility1695136446164:cv-std:cv900:1.0.52 1.0.52
x64 powershell_ubuntu22_04lts askforcloudllc1651766049149 powershell_ubuntu22_04lts askforcloudllc1651766049149:powershell_ubuntu22_04lts:powershell_ubuntu22_04lts:7.2.5 7.2.5
x64 selenium-dynamic-grid noricumcloudsolutions1600524477681 hourly noricumcloudsolutions1600524477681:selenium-dynamic-grid:hourly:1.0.5 1.0.5
x64 audiocodesarmforazure audiocodes audiocodes_arm_for_azure_sku_configurator audiocodes:audiocodesarmforazure:audiocodes_arm_for_azure_sku_configurator:8.8.22 8.8.22
x64 capi-windows cncf-upstream windows-2022-containerd-gen1 cncf-upstream:capi-windows:windows-2022-containerd-gen1:125.5.20221213 125.5.20221213
x64 ubika-waap-cloud ubika 6-lts-payg ubika:ubika-waap-cloud:6-lts-payg:6.11.1 6.11.1
x64 f5-big-ip-per-app-ve f5-networks f5-big-awf-plus-pve-hourly-25mbps f5-networks:f5-big-ip-per-app-ve:f5-big-awf-plus-pve-hourly-25mbps:16.1.401053 16.1.401053
x64 techforceide digitamizeinc tfai_per_hour digitamizeinc:techforceide:tfai_per_hour:1.0.3 1.0.3
x64 mongodb-ubuntu-20-04 cloud-infrastructure-services mongodb-ubuntu-20-04 cloud-infrastructure-services:mongodb-ubuntu-20-04:mongodb-ubuntu-20-04:0.0.1 0.0.1
x64 sftpgo_windows eliamarzia1667381463185 sftpgo_pro eliamarzia1667381463185:sftpgo_windows:sftpgo_pro:2.5.60 2.5.60
x64 netscalervpx-121 citrix netscaler200enterprise citrix:netscalervpx-121:netscaler200enterprise:121.60.19 121.60.19
x64 terraform-windows-server-2022-dc-azure articentgroupllc1635512619530 terraform-windows-server-2022-dc-azure articentgroupllc1635512619530:terraform-windows-server-2022-dc-azure:terraform-windows-server-2022-dc-azure:1.0.0 1.0.0
x64 3647-openjdk-on-hardened-centos-8 cognosys 3647-openjdk-on-hardened-centos-8 cognosys:3647-openjdk-on-hardened-centos-8:3647-openjdk-on-hardened-centos-8:24.01.31 24.01.31
x64 squid-easy-proxy-server-ubuntu-minimal tidalmediainc squid-easy-proxy-server-ubuntu-minimal tidalmediainc:squid-easy-proxy-server-ubuntu-minimal:squid-easy-proxy-server-ubuntu-minimal:1.0.1 1.0.1
x64 lansa-scalable-license lansa w16d-14-2 lansa:lansa-scalable-license:w16d-14-2:14.2.13 14.2.13
x64 docker-ce-almalinux-9 articentgroupllc1635512619530 docker-ce-almalinux-9 articentgroupllc1635512619530:docker-ce-almalinux-9:docker-ce-almalinux-9:1.0.0 1.0.0
x64 unravel-databricks-image unravel-data unravel-image-4760-gen2 unravel-data:unravel-databricks-image:unravel-image-4760-gen2:4.7.60 4.7.60
x64 sss-tm 1624590941808 tm-win2022-payg 1624590941808:sss-tm:tm-win2022-payg:12.4.1 12.4.1
x64 pulse-virtual-traffic-manager-with-waf2 pulse-secure vtm-csub-2000-l-waf pulse-secure:pulse-virtual-traffic-manager-with-waf2:vtm-csub-2000-l-waf:1.190202.0 1.190202.0
x64 ntg_kali_linux_essentials ntegralinc1586961136942 ntg_kali_linux_essentials ntegralinc1586961136942:ntg_kali_linux_essentials:ntg_kali_linux_essentials:1.0.0 1.0.0
x64 lemp vmlabinc1613642184700 php74-mysql80-centos vmlabinc1613642184700:lemp:php74-mysql80-centos:7.4.19 7.4.19
x64 red-hat-enterprise-linux-8-6 askforcloudllc1651766049149 red-hat-enterprise-linux-8-6 askforcloudllc1651766049149:red-hat-enterprise-linux-8-6:red-hat-enterprise-linux-8-6:8.6.0 8.6.0
x64 cis-windows-server-2019-v1-0-0-l1 center-for-internet-security-inc cis-ws2019-l1-vw-po-jan-2022 center-for-internet-security-inc:cis-windows-server-2019-v1-0-0-l1:cis-ws2019-l1-vw-po-jan-2022:2.0.5 2.0.5
x64 aibinding-2023-08-1 softwaretailor1609753491333 enterprise-unlimited-2023-10-byol softwaretailor1609753491333:aibinding-2023-08-1:enterprise-unlimited-2023-10-byol:0.2.1 0.2.1
x64 pentaho techlatest pentaho-plan-01 techlatest:pentaho:pentaho-plan-01:1.0.0 1.0.0
x64 atom-on-windows2022-hotpatch apps-4-rent atom-on-windows2022-hotpatch apps-4-rent:atom-on-windows2022-hotpatch:atom-on-windows2022-hotpatch:0.0.1 0.0.1
x64 inkscape-on-redhat8 apps-4-rent inkscape-on-redhat8 apps-4-rent:inkscape-on-redhat8:inkscape-on-redhat8:0.0.1 0.0.1
x64 webmin-ubuntu-20-04 cloud-infrastructure-services webmin-ubuntu-20-04 cloud-infrastructure-services:webmin-ubuntu-20-04:webmin-ubuntu-20-04:0.0.1 0.0.1
x64 matillion matillion matillion-etl-for-synapse matillion:matillion:matillion-etl-for-synapse:1.53.8 1.53.8
x64 desktop-central manageengine desktopcentral manageengine:desktop-central:desktopcentral:1.0.3 1.0.3
x64 f5-big-ip-best f5-networks f5-big-best-plus-hourly-1gbps-po-f5 f5-networks:f5-big-ip-best:f5-big-best-plus-hourly-1gbps-po-f5:14.1.506012 14.1.506012
x64 mybb_v1-8-27_ nilespartnersinc1617691698386 mybb nilespartnersinc1617691698386:mybb_v1-8-27_:mybb:1.8.27 1.8.27
x64 f5-big-ip-good f5-networks f5-bigip-virtual-edition-25m-good-hourly-po-att f5-networks:f5-big-ip-good:f5-bigip-virtual-edition-25m-good-hourly-po-att:17.1.101000 17.1.101000
x64 flatcar-container-linux-corevm-amd64 kinvolk beta kinvolk:flatcar-container-linux-corevm-amd64:beta:3760.1.1 3760.1.1
x64 openldap-on-ubuntu22 apps-4-rent openldap-on-ubuntu22 apps-4-rent:openldap-on-ubuntu22:openldap-on-ubuntu22:0.0.1 0.0.1
x64 fortinet_fortigate-vm_v5 fortinet fortinet_fg-vm fortinet:fortinet_fortigate-vm_v5:fortinet_fg-vm:7.4.1 7.4.1
x64 rhel-8 procomputers rhel-8-7 procomputers:rhel-8:rhel-8-7:8.7.20221118 8.7.20221118
x64 hpcbox-ansys-cluster-master drizti 20-0-0 drizti:hpcbox-ansys-cluster-master:20-0-0:3.0.0 3.0.0
x64 check-point-cg-r8120 checkpoint sg-ngtx checkpoint:check-point-cg-r8120:sg-ngtx:8120.900631.01475 8120.900631.01475
x64 flatcar-container-linux-free kinvolk alpha kinvolk:flatcar-container-linux-free:alpha:3115.0.0 3115.0.0
x64 cdp-7_2_10 cloudera runtime-7_2_10 cloudera:cdp-7_2_10:runtime-7_2_10:12.34064635.1677198424 12.34064635.1677198424
x64 docker-ce-with-centos-8-0-cm cloudmavensolutions docker-ce-with-centos-8-0-cm cloudmavensolutions:docker-ce-with-centos-8-0-cm:docker-ce-with-centos-8-0-cm:22.04.07 22.04.07
x64 pytorch jetware-srl pytorch03_python2_cuda91-ubuntu-1604 jetware-srl:pytorch:pytorch03_python2_cuda91-ubuntu-1604:1.0.180212 1.0.180212
x64 matlab-production-server-payg-master mathworks-inc matlab-production-server-payg-master-22a mathworks-inc:matlab-production-server-payg-master:matlab-production-server-payg-master-22a:1.1.1 1.1.1
x64 dolibarr-v-13-0-1 nilespartnersinc1617691698386 dolibarr nilespartnersinc1617691698386:dolibarr-v-13-0-1:dolibarr:16.0.1 16.0.1
x64 redhat-8-2-minimal procomputers redhat-8-2-minimal procomputers:redhat-8-2-minimal:redhat-8-2-minimal:8.2.2020040405 8.2.2020040405
x64 openjdk-8-with-centos-7-8 cognosys openjdk-8-with-centos-7-8 cognosys:openjdk-8-with-centos-7-8:openjdk-8-with-centos-7-8:23.08.06 23.08.06
x64 centos-76 cloudwhizsolutions centos-76 cloudwhizsolutions:centos-76:centos-76:22.03.21 22.03.21
x64 netscalervpx-121 citrix netscaler1000enterprise citrix:netscalervpx-121:netscaler1000enterprise:121.57.18 121.57.18
x64 cohesive-vns3-5_0_x cohesive cohesive-vns3-5_2_x-byol cohesive:cohesive-vns3-5_0_x:cohesive-vns3-5_2_x-byol:5.2.0401 5.2.0401
x64 rh-rhel redhat-limited rh-rhel9 redhat-limited:rh-rhel:rh-rhel9:9.2.2023080811 9.2.2023080811
x64 bosh-windows-server pivotal 2012r2 pivotal:bosh-windows-server:2012r2:1200.18.005001 1200.18.005001
x64 netscalervpx-131 citrix netscalervpxexpress citrix:netscalervpx-131:netscalervpxexpress:131.51.15 131.51.15
x64 qutscloud qnapsystemsinc1601352084032 qutscloud qnapsystemsinc1601352084032:qutscloud:qutscloud:4.5.6 4.5.6
x64 zs-csc-mux-4-pricpa maidenhead-bridge zs-csc-mux-4-pricpa-plan maidenhead-bridge:zs-csc-mux-4-pricpa:zs-csc-mux-4-pricpa-plan:4.0.4 4.0.4
x64 netscaler-ma-service-agent citrix netscaler-ma-service-agent citrix:netscaler-ma-service-agent:netscaler-ma-service-agent:131.14.27 131.14.27
x64 f5-big-ip-per-app-ve f5-networks f5-big-awf-plus-pve-hourly-25mbps-po-f5 f5-networks:f5-big-ip-per-app-ve:f5-big-awf-plus-pve-hourly-25mbps-po-f5:16.1.401053 16.1.401053
x64 netbackup-8-0 veritas scanhost-10-2 veritas:netbackup-8-0:scanhost-10-2:10.2.0 10.2.0
x64 codelathe-filecloud-redhat codelathe filecloud_rhel9_byol codelathe:codelathe-filecloud-redhat:filecloud_rhel9_byol:23.1.2 23.1.2
x64 netapp-ontap-cloud netapp ontap_cloud_byol netapp:netapp-ontap-cloud:ontap_cloud_byol:9.131.20231107 9.131.20231107
x64 centos-stream-lvm procomputers centos-stream-lvm procomputers:centos-stream-lvm:centos-stream-lvm:8.2021.0829 8.2021.0829
x64 rhel-8-4 askforcloudllc1651766049149 rhel-8-4 askforcloudllc1651766049149:rhel-8-4:rhel-8-4:8.4.0 8.4.0
x64 apache-maven-on-ubuntu apps-4-rent apache-maven-on-ubuntu apps-4-rent:apache-maven-on-ubuntu:apache-maven-on-ubuntu:1.0.0 1.0.0
x64 app360v43-001 appcara app-env-1001-003 appcara:app360v43-001:app-env-1001-003:4.3.407 4.3.407
x64 flatcar-container-linux-free kinvolk beta kinvolk:flatcar-container-linux-free:beta:2983.1.2 2983.1.2
x64 memcached Bitnami memcached Bitnami:memcached:memcached:1.6.2113447396 1.6.2113447396
x64 capi-windows cncf-upstream windows-2019-containerd-gen1 cncf-upstream:capi-windows:windows-2019-containerd-gen1:127.6.20230918 127.6.20230918
x64 scai_platform scaidata scaiplatform_10 scaidata:scai_platform:scaiplatform_10:3.5.0 3.5.0
x64 secured-e-commerce-market-store-on-win-2012-r2 cognosys secured-e-commerce-market-store-on-win-2012-r2 cognosys:secured-e-commerce-market-store-on-win-2012-r2:secured-e-commerce-market-store-on-win-2012-r2:1.3.0 1.3.0
x64 deprecate-image test_test_mix3pptest0011614206850774 plan2 test_test_mix3pptest0011614206850774:deprecate-image:plan2:1.0.0 1.0.0
x64 cis-oracle center-for-internet-security-inc cis-oraclelinux8-l1-gen1 center-for-internet-security-inc:cis-oracle:cis-oraclelinux8-l1-gen1:3.0.3 3.0.3
x64 ibm_security_access_manager ibm ibm-security-access-manager ibm:ibm_security_access_manager:ibm-security-access-manager:9.0.71 9.0.71
x64 cis-ubuntu-linux-2004-l1 center-for-internet-security-inc cis-ubuntu2004-l1povw center-for-internet-security-inc:cis-ubuntu-linux-2004-l1:cis-ubuntu2004-l1povw:2.0.5 2.0.5
x64 almalinux-9-1-minimal procomputers almalinux-9-1-minimal procomputers:almalinux-9-1-minimal:almalinux-9-1-minimal:9.1.2023050501 9.1.2023050501
x64 intelligent-plant-industrial-appstore-connect intelligent-plant-ltd ip-app-store-connect intelligent-plant-ltd:intelligent-plant-industrial-appstore-connect:ip-app-store-connect:3.1.0 3.1.0
x64 postgresql-server-15-ubuntu-20-04-minimal articentgroupllc1635512619530 postgresql-server-15-ubuntu-20-04-minimal articentgroupllc1635512619530:postgresql-server-15-ubuntu-20-04-minimal:postgresql-server-15-ubuntu-20-04-minimal:1.0.0 1.0.0
x64 redash-ubuntu-server-22-04lts askforcloudllc1651766049149 redash-ubuntu-server-22-04lts askforcloudllc1651766049149:redash-ubuntu-server-22-04lts:redash-ubuntu-server-22-04lts:0.0.1 0.0.1
x64 wallaroo_inference_server wallaroolabs1649097394131 hf_llm_model_x86 wallaroolabs1649097394131:wallaroo_inference_server:hf_llm_model_x86:1.0.1 1.0.1
x64 squid-protected-proxy-windows-server-2016 virtualpulsesro1607008728942 squid-protected-proxy-windows-server-2016 virtualpulsesro1607008728942:squid-protected-proxy-windows-server-2016:squid-protected-proxy-windows-server-2016:1.0.0 1.0.0
x64 check-point-cg-r8110 checkpoint mgmt-25 checkpoint:check-point-cg-r8110:mgmt-25:8110.900335.1300 8110.900335.1300
x64 simplemachinesforum Bitnami 2-0 Bitnami:simplemachinesforum:2-0:2.1.2113458590 2.1.2113458590
x64 vm_offer_algo energisme1601990637842 payg_plan_algo_algonginx_ha_111 energisme1601990637842:vm_offer_algo:payg_plan_algo_algonginx_ha_111:1.3.0 1.3.0
x64 ubuntu23_04cis2 madarsonitllc1614702968211 ubuntu23_cis2 madarsonitllc1614702968211:ubuntu23_04cis2:ubuntu23_cis2:1.0.0 1.0.0
x64 check-point-vsec-r80 checkpoint sg-ngtx-private1 checkpoint:check-point-vsec-r80:sg-ngtx-private1:8010.90034.0430 8010.90034.0430
x64 openfire_team_chat_server_windows_server_2019 virtualpulsesro1607008728942 openfire_chat_server_windows_server_2019 virtualpulsesro1607008728942:openfire_team_chat_server_windows_server_2019:openfire_chat_server_windows_server_2019:1.0.0 1.0.0
x64 netscalervpx-131 citrix netscaler200standard citrix:netscalervpx-131:netscaler200standard:131.33.49 131.33.49
x64 vu-voicerecogn vu-llc vu-voice-serv-14 vu-llc:vu-voicerecogn:vu-voice-serv-14:1.0.0 1.0.0
x64 starwindvirtualsan starwind starwindperhour starwind:starwindvirtualsan:starwindperhour:8.0.13586 8.0.13586
x64 matlab-ref-arch-18a-v1-linux-disk mathworks-inc matlab-ref-arch-19a-vm-linux-sku mathworks-inc:matlab-ref-arch-18a-v1-linux-disk:matlab-ref-arch-19a-vm-linux-sku:19.0.0 19.0.0
x64 centos-8-3-cm cloudmavensolutions centos-8-3-cm cloudmavensolutions:centos-8-3-cm:centos-8-3-cm:22.04.07 22.04.07
x64 postgresql-python-on-redhat apps-4-rent postgresql-python-on-redhat apps-4-rent:postgresql-python-on-redhat:postgresql-python-on-redhat:0.0.1 0.0.1
x64 wordpress-with-centos-77 cognosys wordpress-with-centos-77 cognosys:wordpress-with-centos-77:wordpress-with-centos-77:22.04.06 22.04.06
x64 kinetica-ubuntu-1804-01 kinetica kinetica-ubuntu-vm-01 kinetica:kinetica-ubuntu-1804-01:kinetica-ubuntu-vm-01:1.0.2 1.0.2
x64 ibm-svpc-azure-843-base-vm-cvt ibm-alliance-usa-ny-armonk-hq-ibmstorage-6201192 test-8521-220927-1421 ibm-alliance-usa-ny-armonk-hq-ibmstorage-6201192:ibm-svpc-azure-843-base-vm-cvt:test-8521-220927-1421:8521.1.1 8521.1.1
x64 akeneo Bitnami 1-4 Bitnami:akeneo:1-4:7.0.2113414815 7.0.2113414815
x64 ebc100c7-e682-413d-95b7-455e3cf48efd cloudimg1647283583153 ebc100c7-e682-413d-95b7-455e3cf48efd cloudimg1647283583153:ebc100c7-e682-413d-95b7-455e3cf48efd:ebc100c7-e682-413d-95b7-455e3cf48efd:1.0.0 1.0.0
x64 oncore_docs oncore_cloud_services-4944214 oncoredocs_2022030302 oncore_cloud_services-4944214:oncore_docs:oncoredocs_2022030302:2022.0303.02 2022.0303.02
x64 esdenera-firewall-3 esdenera fwcm2 esdenera:esdenera-firewall-3:fwcm2:3.2.00 3.2.00
x64 grafana vmlabinc1613642184700 grafana-centos vmlabinc1613642184700:grafana:grafana-centos:9.4.7 9.4.7
x64 couchdb_windows_server_2022 askforcloudllc1651766049149 couchdb_windows_server_2022 askforcloudllc1651766049149:couchdb_windows_server_2022:couchdb_windows_server_2022:3.2.2 3.2.2
x64 tkg-capi-2022-06-24 vmware-inc k8s-1dot22dot13-ubuntu-2004 vmware-inc:tkg-capi-2022-06-24:k8s-1dot22dot13-ubuntu-2004:2022.11.01 2022.11.01
x64 kafka vmlabinc1613642184700 kafka280-ubuntu vmlabinc1613642184700:kafka:kafka280-ubuntu:2.8.1 2.8.1
x64 biza-dsaas-vm bizaptyltd1626489237351 free bizaptyltd1626489237351:biza-dsaas-vm:free:0.0.6 0.0.6
x64 matlab-parallel-server-ref-arch-vm-win-offer mathworks-inc matlab-parallel-server-ref-arch-r2021a-vm-win-sku mathworks-inc:matlab-parallel-server-ref-arch-vm-win-offer:matlab-parallel-server-ref-arch-r2021a-vm-win-sku:1.0.1 1.0.1
x64 netscalervpx-130 citrix netscaler200platinum citrix:netscalervpx-130:netscaler200platinum:130.67.43 130.67.43
x64 ntg_cbl_mariner_2 ntegralinc1586961136942 ntg_cbl_mariner_2 ntegralinc1586961136942:ntg_cbl_mariner_2:ntg_cbl_mariner_2:1.0.1 1.0.1
x64 denodo-8_0-vm-auto-test denodo denodo-8_0-vdp-auto-win-202303012200 denodo:denodo-8_0-vm-auto-test:denodo-8_0-vdp-auto-win-202303012200:8.0.202303011 8.0.202303011
x64 espocrm Bitnami 3-9 Bitnami:espocrm:3-9:8.1.2113418438 8.1.2113418438
x64 iperf3-server-linux-stream-8 articentgroupllc1635512619530 iperf3-server-linux-stream-8 articentgroupllc1635512619530:iperf3-server-linux-stream-8:iperf3-server-linux-stream-8:1.0.0 1.0.0
x64 odoo_https meanio odoo-https meanio:odoo_https:odoo-https:2.9.0 2.9.0
x64 redhat-8-7 procomputers redhat-8-7 procomputers:redhat-8-7:redhat-8-7:8.7.2022101301 8.7.2022101301
x64 cwpsazure-internal symanteccorporation cwpsazure-cu symanteccorporation:cwpsazure-internal:cwpsazure-cu:1.0.14 1.0.14
x64 nsx-cloud-service-manager-test vmware-inc byol-3-1-1-test vmware-inc:nsx-cloud-service-manager-test:byol-3-1-1-test:0.0.18020064 0.0.18020064
x64 centos-77-free cognosys centos-77-free cognosys:centos-77-free:centos-77-free:22.03.28 22.03.28
x64 grafana-centos-7 tidalmediainc grafana-centos-7-9 tidalmediainc:grafana-centos-7:grafana-centos-7-9:1.0.2 1.0.2
x64 barracuda-app-sec-control-center barracudanetworks byol barracudanetworks:barracuda-app-sec-control-center:byol:2.2.100402 2.2.100402
x64 openproject-ubuntu2004 apps-4-rent openproject-ubuntu2004 apps-4-rent:openproject-ubuntu2004:openproject-ubuntu2004:1.0.0 1.0.0
x64 enterprisealert derdack enterprisealert-2017-datacenter-25users derdack:enterprisealert:enterprisealert-2017-datacenter-25users:1.0.1 1.0.1
x64 pulse-virtual-traffic-manager3 pulse-secure vtm-csub-1000-l pulse-secure:pulse-virtual-traffic-manager3:vtm-csub-1000-l:1.180202.0 1.180202.0
x64 netscalervpx-130 citrix netscaler10platinum citrix:netscalervpx-130:netscaler10platinum:130.76.31 130.76.31
x64 centos-8-3 procomputers centos-8-3 procomputers:centos-8-3:centos-8-3:8.3.20210320 8.3.20210320
x64 flatcar-container-linux kinvolk alpha kinvolk:flatcar-container-linux:alpha:2783.0.0 2783.0.0
x64 capi cncf-upstream ubuntu-2004-gen1 cncf-upstream:capi:ubuntu-2004-gen1:123.17.20230302 123.17.20230302
x64 openlitespeed-joomla litespeedtechnologies joomla litespeedtechnologies:openlitespeed-joomla:joomla:4.3.3 4.3.3
x64 3142-limesurvey-with-ubuntu-1604-lts-free cognosys 3142-limesurvey-with-ubuntu-1604-lts-free cognosys:3142-limesurvey-with-ubuntu-1604-lts-free:3142-limesurvey-with-ubuntu-1604-lts-free:23.08.06 23.08.06
x64 prod-7oxrj3kunqep6 cloudimg1647283583153 prod-7oxrj3kunqep6 cloudimg1647283583153:prod-7oxrj3kunqep6:prod-7oxrj3kunqep6:1.0.0 1.0.0
x64 icecast-streaming-server-debian-11 articentgroupllc1635512619530 icecast-streaming-server-debian-11 articentgroupllc1635512619530:icecast-streaming-server-debian-11:icecast-streaming-server-debian-11:1.0.0 1.0.0
x64 apache_geode_v-1-14-2 nilespartnersinc1617691698386 apache-geode-v-1-14-2 nilespartnersinc1617691698386:apache_geode_v-1-14-2:apache-geode-v-1-14-2:1.14.2 1.14.2
x64 a10training-handson-v2-jp a10networks1596136698788 handson414v2jp a10networks1596136698788:a10training-handson-v2-jp:handson414v2jp:2021.08.12 2021.08.12
x64 ubuntu_20_04_webissues_issue_tracking_tool virtualpulsesro1607008728942 ubuntu_20_04_webissues_issue_tracking_tool virtualpulsesro1607008728942:ubuntu_20_04_webissues_issue_tracking_tool:ubuntu_20_04_webissues_issue_tracking_tool:1.0.0 1.0.0
x64 jenkins-on-windows-server-2019 cognosys jenkins-on-windows-server-2019 cognosys:jenkins-on-windows-server-2019:jenkins-on-windows-server-2019:1.2019.1010 1.2019.1010
x64 ansible_on_centos_stream_8 askforcloudllc1651766049149 ansible_on_centos_stream_8 askforcloudllc1651766049149:ansible_on_centos_stream_8:ansible_on_centos_stream_8:1.0.0 1.0.0
x64 matlab-ref-arch-windows-disk mathworks-inc matlab-ref-arch-win-sku-r2021b mathworks-inc:matlab-ref-arch-windows-disk:matlab-ref-arch-win-sku-r2021b:1.0.1 1.0.1
x64 internal-avi-vantage-adc avi-networks avi-vantage-private-test avi-networks:internal-avi-vantage-adc:avi-vantage-private-test:19.0.1 19.0.1
x64 db781d2d-48ec-4360-acd4-2c589052697a cloudimg1647283583153 db781d2d-48ec-4360-acd4-2c589052697a cloudimg1647283583153:db781d2d-48ec-4360-acd4-2c589052697a:db781d2d-48ec-4360-acd4-2c589052697a:1.0.0 1.0.0
x64 docker-compose-debian-10 tidalmediainc docker-compose-debian-10 tidalmediainc:docker-compose-debian-10:docker-compose-debian-10:1.0.0 1.0.0
x64 incredibuild_cloud_agent_helper incredibuild ibc incredibuild:incredibuild_cloud_agent_helper:ibc:4.5.5 4.5.5
x64 f5-big-ip-good f5-networks f5-bigip-virtual-edition-200m-good-hourly-po-att f5-networks:f5-big-ip-good:f5-bigip-virtual-edition-200m-good-hourly-po-att:15.1.1003000 15.1.1003000
x64 tanium_azurevm taniuminc1646329360287 tanium-tanos taniuminc1646329360287:tanium_azurevm:tanium-tanos:1.7.6103 1.7.6103
x64 cis-rhel center-for-internet-security-inc cis-redhat9-l1-gen1-azure-observability-team center-for-internet-security-inc:cis-rhel:cis-redhat9-l1-gen1-azure-observability-team:1.0.11 1.0.11
x64 metta-facerecognition mettainnovations-4900054 standard-02 mettainnovations-4900054:metta-facerecognition:standard-02:1.0.1 1.0.1
x64 nextcloud-server-linux-7-9 articentgroupllc1635512619530 nextcloud-server-linux-7-9 articentgroupllc1635512619530:nextcloud-server-linux-7-9:nextcloud-server-linux-7-9:1.0.0 1.0.0
x64 weka_machine_learning_on_windows_server_2019 askforcloudllc1651766049149 weka_machine_learning_on_windows_server_2019 askforcloudllc1651766049149:weka_machine_learning_on_windows_server_2019:weka_machine_learning_on_windows_server_2019:0.0.1 0.0.1
x64 wireguard-server-linux-stream-8-minimal articentgroupllc1635512619530 wireguard-server-linux-stream-8-minimal articentgroupllc1635512619530:wireguard-server-linux-stream-8-minimal:wireguard-server-linux-stream-8-minimal:1.0.1 1.0.1
x64 f5-big-ip-byol f5-networks f5-big-all-2slot-byol f5-networks:f5-big-ip-byol:f5-big-all-2slot-byol:16.1.401053 16.1.401053
x64 flatcar-container-linux-free kinvolk beta-gen2 kinvolk:flatcar-container-linux-free:beta-gen2:3549.1.1 3549.1.1
x64 phalcon_on_ubuntu apps-4-rent phalcon-on-ubuntu apps-4-rent:phalcon_on_ubuntu:phalcon-on-ubuntu:1.0.0 1.0.0
x64 brocade-virtual-traffic-manager brocade_communications stm_csub_2000_l_64 brocade_communications:brocade-virtual-traffic-manager:stm_csub_2000_l_64:1.170300.0 1.170300.0
x64 ubuntu_18_04_asterisk_voip_system virtualpulsesro1607008728942 ubuntu_18_04_asterisk_voip_system virtualpulsesro1607008728942:ubuntu_18_04_asterisk_voip_system:ubuntu_18_04_asterisk_voip_system:1.0.0 1.0.0
x64 zcenter651 zenterasystemsinc1605292453288 zcenter652azuremarketplaceplan1 zenterasystemsinc1605292453288:zcenter651:zcenter652azuremarketplaceplan1:6.5.2 6.5.2
x64 citrix-connector-appliance-vhds citrix citrix-connector-appliance-vhds citrix:citrix-connector-appliance-vhds:citrix-connector-appliance-vhds:44.5.4 44.5.4
x64 x-ray-vm jfrog x-ray-vm jfrog:x-ray-vm:x-ray-vm:0.0.19 0.0.19
x64 turbo-server-resources turbonet hubportalapp turbonet:turbo-server-resources:hubportalapp:22.9.2 22.9.2
x64 tn-ent-plus-payg-ng southrivertech1586314123192 tnentpluspayg-c southrivertech1586314123192:tn-ent-plus-payg-ng:tnentpluspayg-c:2.07.2141 2.07.2141
x64 pulse-virtual-traffic-manager pulse-secure vtm-csub-1000-l pulse-secure:pulse-virtual-traffic-manager:vtm-csub-1000-l:1.170300.0 1.170300.0
x64 2502-mariadb-10-with-centos-82 cognosys pl-2502-mariadb-10-with-centos-82 cognosys:2502-mariadb-10-with-centos-82:pl-2502-mariadb-10-with-centos-82:24.01.31 24.01.31
x64 oxid-v-6-1-5 nilespartnersinc1617691698386 oxid nilespartnersinc1617691698386:oxid-v-6-1-5:oxid:6.1.5 6.1.5
x64 centos_corevm_test-200408 OpenLogic 8_1-200408-gen2 OpenLogic:centos_corevm_test-200408:8_1-200408-gen2:8.1.2020022749 8.1.2020022749
x64 webissues-server-debian-10 articentgroupllc1635512619530 webissues-server-debian-10 articentgroupllc1635512619530:webissues-server-debian-10:webissues-server-debian-10:1.0.0 1.0.0
x64 wondercms-on-ubuntu apps-4-rent wondercms-on-ubuntu apps-4-rent:wondercms-on-ubuntu:wondercms-on-ubuntu:1.0.0 1.0.0
x64 prod-ay7bncd376e2i cloudimg1647283583153 prod-ay7bncd376e2i cloudimg1647283583153:prod-ay7bncd376e2i:prod-ay7bncd376e2i:1.0.0 1.0.0
x64 cis-rhel-7-stig center-for-internet-security-inc cis-rhel-7-stig-vw-po center-for-internet-security-inc:cis-rhel-7-stig:cis-rhel-7-stig-vw-po:2.0.16 2.0.16
x64 axrm-st-vm agiledialogssl1603791911858 pgen2_axrm-server-st agiledialogssl1603791911858:axrm-st-vm:pgen2_axrm-server-st:080.24043.20400 080.24043.20400
x64 nodejs-12-with-ubuntu-1404-lts-free cognosys nodejs-12-with-ubuntu-1404-lts-free cognosys:nodejs-12-with-ubuntu-1404-lts-free:nodejs-12-with-ubuntu-1404-lts-free:22.03.29 22.03.29
x64 comunity-rapid-digitsation-platform comunity c1912startplus comunity:comunity-rapid-digitsation-platform:c1912startplus:1.0.4 1.0.4
x64 kockpit-hadoopspark kockpitanalyticspvtltd1645177427945 spark-private kockpitanalyticspvtltd1645177427945:kockpit-hadoopspark:spark-private:1.0.2 1.0.2
x64 rhel-8-8-eus procomputers rhel-8-8-eus procomputers:rhel-8-8-eus:rhel-8-8-eus:8.8.20240110 8.8.20240110
x64 vantage-teradata-database teradata teradata-database-base-1620-914 teradata:vantage-teradata-database:teradata-database-base-1620-914:2.2.1 2.2.1
x64 f5-big-ip-good f5-networks f5-bigip-virtual-edition-5g-good-hourly-po-att f5-networks:f5-big-ip-good:f5-bigip-virtual-edition-5g-good-hourly-po-att:15.1.1003000 15.1.1003000
x64 flatcar-container-linux kinvolk stable kinvolk:flatcar-container-linux:stable:2905.2.4 2905.2.4
x64 tkg-capi-2022-06-24 vmware-inc k8s-1dot24dot11-ubuntu-2004 vmware-inc:tkg-capi-2022-06-24:k8s-1dot24dot11-ubuntu-2004:2023.04.12 2023.04.12
x64 netscalervpx-130 citrix netscaler1000standard citrix:netscalervpx-130:netscaler1000standard:130.79.64 130.79.64
x64 2023-03-27-twas-cluster-base-image ibm-usa-ny-armonk-hq-6275750-ibmcloud-aiops 2023-03-27-twas-cluster-base-image ibm-usa-ny-armonk-hq-6275750-ibmcloud-aiops:2023-03-27-twas-cluster-base-image:2023-03-27-twas-cluster-base-image:9.0.20230629 9.0.20230629
x64 ubuntu-server-18-04-minimal tidalmediainc ubuntu-server-18-04-minimal tidalmediainc:ubuntu-server-18-04-minimal:ubuntu-server-18-04-minimal:1.0.0 1.0.0
x64 sg2 checkpoint private-omerlevy-internal-limited checkpoint:sg2:private-omerlevy-internal-limited:8000.90132.0170 8000.90132.0170
x64 check-point-cg-r8030 checkpoint mgmt-byol checkpoint:check-point-cg-r8030:mgmt-byol:8030.900200.0523 8030.900200.0523
x64 zerto-vms zerto zerto10 zerto:zerto-vms:zerto10:1.0.113 1.0.113
x64 panorama paloaltonetworks byol paloaltonetworks:panorama:byol:10.1.5 10.1.5
x64 redhat-8-1-minimal procomputers redhat-8-1-minimal procomputers:redhat-8-1-minimal:redhat-8-1-minimal:8.1.2019101505 8.1.2019101505
x64 jenkins-docker-with-ubuntu-20-04-lts cognosys jenkins-docker-with-ubuntu-20-04-lts cognosys:jenkins-docker-with-ubuntu-20-04-lts:jenkins-docker-with-ubuntu-20-04-lts:1.2019.1011 1.2019.1011
x64 linux_8_3_with_iredmail virtualpulsesro1607008728942 linux_8_3_with_iredmail virtualpulsesro1607008728942:linux_8_3_with_iredmail:linux_8_3_with_iredmail:1.0.0 1.0.0
x64 capi-windows cncf-upstream k8s-1dot22dot4-windows-2022-containerd cncf-upstream:capi-windows:k8s-1dot22dot4-windows-2022-containerd:2021.11.18 2021.11.18
x64 sftp-openssh-ftp-server-linux-7-9-minimal tidalmediainc sftp-openssh-ftp-server-linux-7-9-minimal tidalmediainc:sftp-openssh-ftp-server-linux-7-9-minimal:sftp-openssh-ftp-server-linux-7-9-minimal:1.0.0 1.0.0
x64 cpucluster2021vm crunchyardltd1623835391104 cpucluster2021vm crunchyardltd1623835391104:cpucluster2021vm:cpucluster2021vm:1.0.3 1.0.3
x64 zendphp-ubuntu-22_04-nginx perforce zendphp-ubuntu-22_04-nginx-byol perforce:zendphp-ubuntu-22_04-nginx:zendphp-ubuntu-22_04-nginx-byol:2023.10.12 2023.10.12
x64 deviecon_on_windows_vm_v1 advantech test advantech:deviecon_on_windows_vm_v1:test:4.6.3 4.6.3
x64 surpaas-maas corent-technology-pvt surpaas-maas corent-technology-pvt:surpaas-maas:surpaas-maas:1.0.55 1.0.55
x64 eurodb-14-1-full-cs8 eurolinuxspzoo1620639373013 eurodb-14-1-cs8-support eurolinuxspzoo1620639373013:eurodb-14-1-full-cs8:eurodb-14-1-cs8-support:14.1.2 14.1.2
x64 modx Bitnami 2-4 Bitnami:modx:2-4:3.0.2113305788 3.0.2113305788
x64 CentOS-LVM OpenLogic 7-lvm-gen2 OpenLogic:CentOS-LVM:7-lvm-gen2:7.9.2020111901 7.9.2020111901
x64 capi-windows cncf-upstream windows-2019-containerd-gen1 cncf-upstream:capi-windows:windows-2019-containerd-gen1:124.15.20230616 124.15.20230616
x64 cv-std clearvisibility1695136446164 cv70k clearvisibility1695136446164:cv-std:cv70k:1.0.52 1.0.52
x64 espocrm_on_ubuntu_20_4_lts askforcloudllc1651766049149 espocrm_on_ubuntu_20_4_lts askforcloudllc1651766049149:espocrm_on_ubuntu_20_4_lts:espocrm_on_ubuntu_20_4_lts:0.0.1 0.0.1
x64 krita-windows-server-2022-azure-edition apps-4-rent krita-on-windows-server-2022-azure-edition apps-4-rent:krita-windows-server-2022-azure-edition:krita-on-windows-server-2022-azure-edition:27.09.03 27.09.03
x64 pulse-virtual-traffic-manager pulse-secure vtm-csub-1000-m pulse-secure:pulse-virtual-traffic-manager:vtm-csub-1000-m:1.170200.0 1.170200.0
x64 f5-big-ip-good f5-networks f5-bigip-virtual-edition-200m-good-hourly f5-networks:f5-big-ip-good:f5-bigip-virtual-edition-200m-good-hourly:16.1.401053 16.1.401053
x64 secured-passenger-nginx-on-centos cognosys secured-passenger-nginx-on-centos cognosys:secured-passenger-nginx-on-centos:secured-passenger-nginx-on-centos:1.1.1 1.1.1
x64 self_hosted_runner_ado amestofortytwoas1653635920536 ubuntu-latest amestofortytwoas1653635920536:self_hosted_runner_ado:ubuntu-latest:20240107.1.0 20240107.1.0
x64 sftpgo_linux eliamarzia1667381463185 sftpgo_standard eliamarzia1667381463185:sftpgo_linux:sftpgo_standard:2.5.2 2.5.2
x64 redhat-7-8-gen2 procomputers redhat-7-8-gen2 procomputers:redhat-7-8-gen2:redhat-7-8-gen2:7.8.2020022503 7.8.2020022503
x64 keyhub iquest keyhub-byol-dem iquest:keyhub:keyhub-byol-dem:1.0.1 1.0.1
x64 0004-com-ubuntu-22-04 bansirllc1619470302579 id-product-plan-ubuntu-id bansirllc1619470302579:0004-com-ubuntu-22-04:id-product-plan-ubuntu-id:18.23.0 18.23.0
x64 cis-centos-7-v2-1-1-l1 center-for-internet-security-inc cis-centos-7-v2-1-1-l1-azure-observability-team center-for-internet-security-inc:cis-centos-7-v2-1-1-l1:cis-centos-7-v2-1-1-l1-azure-observability-team:3.1.27 3.1.27
x64 flatcar-container-linux-free kinvolk beta kinvolk:flatcar-container-linux-free:beta:2605.3.0 2605.3.0
x64 selenium-windows noricumcloudsolutions1600524477681 selenium_windows noricumcloudsolutions1600524477681:selenium-windows:selenium_windows:1.0.3 1.0.3
x64 apache-web-server-with-redhat-8 cognosys apache-web-server-with-redhat-8 cognosys:apache-web-server-with-redhat-8:apache-web-server-with-redhat-8:24.03.06 24.03.06
x64 collectl-on-ubuntu apps-4-rent collectl-on-ubuntu apps-4-rent:collectl-on-ubuntu:collectl-on-ubuntu:1.0.0 1.0.0
x64 acc-postgre1 accelario1579101623356 accelario accelario1579101623356:acc-postgre1:accelario:4.5.6 4.5.6
x64 CentOS OpenLogic 7.7 OpenLogic:CentOS:7.7:7.7.2020062400 7.7.2020062400
x64 3279-centos-84-cw cloudwhizsolutions pl-3279-centos-84-cw cloudwhizsolutions:3279-centos-84-cw:pl-3279-centos-84-cw:23.07.31 23.07.31
x64 check-point-cg-r8030 checkpoint sg-ngtp-v2-experian1887650 checkpoint:check-point-cg-r8030:sg-ngtp-v2-experian1887650:8030.900273.0634 8030.900273.0634
x64 php-zend-server zend zs-e-00-u-php7_1 zend:php-zend-server:zs-e-00-u-php7_1:2021.0.0 2021.0.0
x64 pulse-virtual-traffic-manager-with-waf pulse-secure vtm-csub-2000-l-waf pulse-secure:pulse-virtual-traffic-manager-with-waf:vtm-csub-2000-l-waf:1.100401.0 1.100401.0
x64 eli5-on-ubuntu-22-04lts apps-4-rent eli5-on-ubuntu-22-04lts apps-4-rent:eli5-on-ubuntu-22-04lts:eli5-on-ubuntu-22-04lts:0.0.1 0.0.1
x64 postgresql vmlabinc1613642184700 postgresql10-centos vmlabinc1613642184700:postgresql:postgresql10-centos:10.21.0 10.21.0
x64 redpoint-interaction redpoint-global azm-rpi-vm redpoint-global:redpoint-interaction:azm-rpi-vm:0.0.1 0.0.1
x64 teradici_game_dev_vm_golden_image Teradici goldenimage1 Teradici:teradici_game_dev_vm_golden_image:goldenimage1:1.0.9 1.0.9
x64 cisco_cloud_vwan_csr cisco cisco_cloud_vwan_csr_17_3_0_2938 cisco:cisco_cloud_vwan_csr:cisco_cloud_vwan_csr_17_3_0_2938:17.10.01 17.10.01
x64 plesk-onyx-linux plesk plsk-ubun-byol-azr-m plesk:plesk-onyx-linux:plsk-ubun-byol-azr-m:18.0.49 18.0.49
x64 osirium_pem osirium-ltd osirium_epm_server_v352 osirium-ltd:osirium_pem:osirium_epm_server_v352:1.0.0 1.0.0
x64 flatcar-container-linux-free kinvolk alpha-gen2 kinvolk:flatcar-container-linux-free:alpha-gen2:3305.0.0 3305.0.0
x64 kockpit-mongodb kockpitanalyticspvtltd1645177427945 mongo-paid kockpitanalyticspvtltd1645177427945:kockpit-mongodb:mongo-paid:1.0.1 1.0.1
x64 sle-micro-5-5-ltd suseirelandltd1692213356027 gen1 suseirelandltd1692213356027:sle-micro-5-5-ltd:gen1:2023.11.28 2023.11.28
x64 adobe-cf2021-ubuntu media3-llc-adobe adobe-cf2021-ubuntu-commercial media3-llc-adobe:adobe-cf2021-ubuntu:adobe-cf2021-ubuntu-commercial:21.1.1 21.1.1
x64 zendphp-ubuntu-20_04-apache perforce zendphp-ubuntu-20_04-apache-byol perforce:zendphp-ubuntu-20_04-apache:zendphp-ubuntu-20_04-apache-byol:2023.06.19 2023.06.19
x64 marklogic-developer-10 marklogic ml100102-centos marklogic:marklogic-developer-10:ml100102-centos:1.0.0 1.0.0
x64 cdataconnect cdatasoftware connect_pro cdatasoftware:cdataconnect:connect_pro:21.0.8136 21.0.8136
x64 rocketchat-debian-10-minimal articentgroupllc1635512619530 rocketchat-debian-10-minimal articentgroupllc1635512619530:rocketchat-debian-10-minimal:rocketchat-debian-10-minimal:1.0.0 1.0.0
x64 docker-compose-2016 cloud-infrastructure-services docker-compose-2016 cloud-infrastructure-services:docker-compose-2016:docker-compose-2016:0.0.1 0.0.1
x64 websphere-application-server-nde-85 midvision midvision-ibm-was_nd_edition-85 midvision:websphere-application-server-nde-85:midvision-ibm-was_nd_edition-85:8.5525.202402 8.5525.202402
x64 centos-8-4-cw cloudwhizsolutions centos-8-4-cw cloudwhizsolutions:centos-8-4-cw:centos-8-4-cw:1.2019.0712 1.2019.0712
x64 cis-rhel-8-l1 center-for-internet-security-inc cis-rhel8-l1-vw-po center-for-internet-security-inc:cis-rhel-8-l1:cis-rhel8-l1-vw-po:2.0.18 2.0.18
x64 krita-on-redhat apps-4-rent krita-on-redhat apps-4-rent:krita-on-redhat:krita-on-redhat:0.0.1 0.0.1
x64 belvmsrvftp01 belindaczsro1588885355210 belvmsrvftp01 belindaczsro1588885355210:belvmsrvftp01:belvmsrvftp01:1.1.0 1.1.0
x64 pivotal-ops-manager pivotal pivotal-ops-manager pivotal:pivotal-ops-manager:pivotal-ops-manager:2.8.5 2.8.5
x64 openvpn-free-vpn-server-red-hat-9 tidalmediainc openvpn-free-vpn-server-red-hat-9 tidalmediainc:openvpn-free-vpn-server-red-hat-9:openvpn-free-vpn-server-red-hat-9:1.0.0 1.0.0
x64 netscalervpx-141 citrix netscalervpxexpress citrix:netscalervpx-141:netscalervpxexpress:141.17.38 141.17.38
x64 alma-linux-9-minimal procomputers alma-linux-9-minimal procomputers:alma-linux-9-minimal:alma-linux-9-minimal:9.3.20231205 9.3.20231205
x64 cv-standard clearvisibility1695136446164 cv2500 clearvisibility1695136446164:cv-standard:cv2500:1.0.46 1.0.46
x64 capi-windows cncf-upstream windows-2019-containerd-gen1 cncf-upstream:capi-windows:windows-2019-containerd-gen1:129.1.20240201 129.1.20240201
x64 hammerspace-4-6-5 hammerspace hammerspace_4_6_5 hammerspace:hammerspace-4-6-5:hammerspace_4_6_5:1.0.1 1.0.1
x64 scrapy-on-ubuntu22 apps-4-rent scrapy-on-ubuntu22 apps-4-rent:scrapy-on-ubuntu22:scrapy-on-ubuntu22:0.0.1 0.0.1
x64 netscalervpx-141 citrix netscaler3000enterprise citrix:netscalervpx-141:netscaler3000enterprise:141.12.30 141.12.30
x64 vm-lightning-network-for-azure-by-hashhub-alpha1 hashhub alpha1-free hashhub:vm-lightning-network-for-azure-by-hashhub-alpha1:alpha1-free:0.0.5 0.0.5
x64 netscalervpx-141 citrix netscaler10standard citrix:netscalervpx-141:netscaler10standard:141.17.38 141.17.38
x64 x2crm-on-ubuntu apps-4-rent x2crm-on-ubuntu apps-4-rent:x2crm-on-ubuntu:x2crm-on-ubuntu:1.0.0 1.0.0
x64 lamp-with-ubuntu-server-1804-lts cognosys lamp-with-ubuntu-server-1804-lts cognosys:lamp-with-ubuntu-server-1804-lts:lamp-with-ubuntu-server-1804-lts:22.03.02 22.03.02
x64 check-point-cg-r8040 checkpoint sg-ngtp checkpoint:check-point-cg-r8040:sg-ngtp:8040.900294.1300 8040.900294.1300
x64 netscalervpx-121 citrix netscaler200enterprise citrix:netscalervpx-121:netscaler200enterprise:121.62.21 121.62.21
x64 report-server-vm syncfusion -bring-your-own-license syncfusion:report-server-vm:-bring-your-own-license:2.2.31 2.2.31
x64 jasperreports Bitnami 6-2 Bitnami:jasperreports:6-2:8.2.2113401303 8.2.2113401303
x64 pulse-virtual-traffic-manager2 pulse-secure vtm-csp-500-l2 pulse-secure:pulse-virtual-traffic-manager2:vtm-csp-500-l2:1.190204.1 1.190204.1
x64 netscalervpx-130 citrix netscaler1000enterprise citrix:netscalervpx-130:netscaler1000enterprise:130.90.7 130.90.7
x64 matlab-production-server-byol-windows mathworks-inc matlab-production-server-byol-windows-22a mathworks-inc:matlab-production-server-byol-windows:matlab-production-server-byol-windows-22a:1.1.0 1.1.0
x64 f5-big-ip-per-app-ve f5-networks f5-big-awf-plus-pve-hourly-200mbps-po-0 f5-networks:f5-big-ip-per-app-ve:f5-big-awf-plus-pve-hourly-200mbps-po-0:16.1.402000 16.1.402000
x64 zerto-vms zerto zerto_linux_zca_transact zerto:zerto-vms:zerto_linux_zca_transact:100.20.1643 100.20.1643
x64 gimp-on-windows11-pro apps-4-rent gimp-on-windows11-pro apps-4-rent:gimp-on-windows11-pro:gimp-on-windows11-pro:0.0.1 0.0.1
x64 deviceon_ads_linux_v1 advantech standard advantech:deviceon_ads_linux_v1:standard:2.3.1 2.3.1
x64 nvidia-ai-enterprise nvidia nvaie_gpu_8 nvidia:nvidia-ai-enterprise:nvaie_gpu_8:24.01.0 24.01.0
x64 openvpn-free-vpn-server-almalinux-8 tidalmediainc openvpn-free-vpn-server-almalinux-8 tidalmediainc:openvpn-free-vpn-server-almalinux-8:openvpn-free-vpn-server-almalinux-8:1.0.0 1.0.0
x64 vu-app-server vu-llc vu-app-srv-3 vu-llc:vu-app-server:vu-app-srv-3:1.0.0 1.0.0
x64 geany-on-ubuntu20 apps-4-rent geany-on-ubuntu20 apps-4-rent:geany-on-ubuntu20:geany-on-ubuntu20:0.0.1 0.0.1
x64 nginx_plus_with_nginx_app_protect_premium nginxinc nginx_plus_with_nginx_app_protect_prem_ubuntu1804 nginxinc:nginx_plus_with_nginx_app_protect_premium:nginx_plus_with_nginx_app_protect_prem_ubuntu1804:2.0.3 2.0.3
x64 pipelines-buildplane jfrog x86_64-ubuntu_20_04 jfrog:pipelines-buildplane:x86_64-ubuntu_20_04:2.4.3 2.4.3
x64 check-point-cg-r8030 checkpoint sg-ngtx checkpoint:check-point-cg-r8030:sg-ngtx:8030.900273.0562 8030.900273.0562
x64 kafka vmlabinc1613642184700 kafka251-ubuntu vmlabinc1613642184700:kafka:kafka251-ubuntu:2.5.0 2.5.0
x64 rstudio datasciencedojo1586563145740 rstudioplanbasic datasciencedojo1586563145740:rstudio:rstudioplanbasic:1.0.0 1.0.0
x64 vmseries1 paloaltonetworks bundle1 paloaltonetworks:vmseries1:bundle1:8.1.25 8.1.25
x64 cis-ubuntu center-for-internet-security-inc cis-ubuntulinux2004-l1-gen1-azure-observability center-for-internet-security-inc:cis-ubuntu:cis-ubuntulinux2004-l1-gen1-azure-observability:2.0.6 2.0.6
x64 1touch-sdi-vm 1touchio1627313187723 001-byol-inventa 1touchio1627313187723:1touch-sdi-vm:001-byol-inventa:3.6.1 3.6.1
x64 modx_v-2-8-3 nilespartnersinc1617691698386 modx_v-2-8-3 nilespartnersinc1617691698386:modx_v-2-8-3:modx_v-2-8-3:2.8.3 2.8.3
x64 kusanagi9 prime-strategy 9_0_0-centos-st-9 prime-strategy:kusanagi9:9_0_0-centos-st-9:9.2.2303 9.2.2303
x64 numpy-pandas-huggingfacetransformer-on-ubuntu22 apps-4-rent huggingfacetransformers-numpy-pandas-on-ubuntu22 apps-4-rent:numpy-pandas-huggingfacetransformer-on-ubuntu22:huggingfacetransformers-numpy-pandas-on-ubuntu22:0.0.1 0.0.1
x64 suitecrm-on-centos75 apps-4-rent suitecrm-on-centos75 apps-4-rent:suitecrm-on-centos75:suitecrm-on-centos75:1.0.0 1.0.0
x64 2021-04-27-twas-cluster-base-image ibm-usa-ny-armonk-hq-6275750-ibmcloud-aiops 2021-04-27-twas-cluster-base-image ibm-usa-ny-armonk-hq-6275750-ibmcloud-aiops:2021-04-27-twas-cluster-base-image:2021-04-27-twas-cluster-base-image:9.0.20210726 9.0.20210726
x64 rhel-7-9-gen2-python3-11 rinnelabs1694698542130 rhel-7-9-gen2-python3-11 rinnelabs1694698542130:rhel-7-9-gen2-python3-11:rhel-7-9-gen2-python3-11:7.9.20240126 7.9.20240126
x64 sles-12-sp5-basic SUSE gen1 SUSE:sles-12-sp5-basic:gen1:2024.01.25 2024.01.25
x64 docker-ce-edge docker docker-ce-edge docker:docker-ce-edge:docker-ce-edge:1.0.3 1.0.3
x64 pipelines-buildplane jfrog x86_64-ubuntu_18_04 jfrog:pipelines-buildplane:x86_64-ubuntu_18_04:1.2.7 1.2.7
x64 postgres-pro-enterprise-14-vm postgres-pro pgpro-ent14-debian11-x64 postgres-pro:postgres-pro-enterprise-14-vm:pgpro-ent14-debian11-x64:14.10.1 14.10.1
x64 flatcar-container-linux kinvolk stable-gen2 kinvolk:flatcar-container-linux:stable-gen2:2983.2.0 2983.2.0
x64 cpanel-pro-wp media3-technologies-llc cpanwp2 media3-technologies-llc:cpanel-pro-wp:cpanwp2:2.2.1 2.2.1
x64 pulse-virtual-traffic-manager-with-waf2 pulse-secure vtm-csub-1000-h-waf pulse-secure:pulse-virtual-traffic-manager-with-waf2:vtm-csub-1000-h-waf:1.190203.0 1.190203.0
x64 standard mfiles byol mfiles:standard:byol:4.1.202002 4.1.202002
x64 pytorch_cuda_notebook jetware-srl pytorch041_python3_cuda92_notebook-ubuntu-1604 jetware-srl:pytorch_cuda_notebook:pytorch041_python3_cuda92_notebook-ubuntu-1604:1.0.180916 1.0.180916
x64 vantage-teradata-database-intellisphere teradata teradata-database-enterprise-1620-256 teradata:vantage-teradata-database-intellisphere:teradata-database-enterprise-1620-256:2.2.1 2.2.1
x64 sas_dp_worker_b sas-institute-560503 sas_dp_worker_b_plan1 sas-institute-560503:sas_dp_worker_b:sas_dp_worker_b_plan1:1.0.0 1.0.0
x64 ntg_ubuntu_20_04_2_umbraco_9_v1_0_0 ntegralinc1586961136942 ntg_ubuntu_20_04_2_umbraco_9rc ntegralinc1586961136942:ntg_ubuntu_20_04_2_umbraco_9_v1_0_0:ntg_ubuntu_20_04_2_umbraco_9rc:1.0.1 1.0.1
x64 cirq-on-windows2019 apps-4-rent cirq-quantum-computing-windows2019 apps-4-rent:cirq-on-windows2019:cirq-quantum-computing-windows2019:0.0.1 0.0.1
x64 f5-big-ip-better f5-networks f5-bigip-virtual-edition-200m-better-hourly-po-f5 f5-networks:f5-big-ip-better:f5-bigip-virtual-edition-200m-better-hourly-po-f5:15.1.1003000 15.1.1003000
x64 nodejs-10-with-ubuntu-1604-lts-free cognosys nodejs-10-with-ubuntu-1604-lts-free cognosys:nodejs-10-with-ubuntu-1604-lts-free:nodejs-10-with-ubuntu-1604-lts-free:24.03.06 24.03.06
x64 apache-web-server-with-centos-77-free cognosys apache-web-server-with-centos-77-free cognosys:apache-web-server-with-centos-77-free:apache-web-server-with-centos-77-free:22.03.02 22.03.02
x64 anynode-the-software-sbc te-systems 200-any-deb11-1 te-systems:anynode-the-software-sbc:200-any-deb11-1:4.10.14 4.10.14
x64 bosh-windows-server-1803 pivotal 1803-8plus pivotal:bosh-windows-server-1803:1803-8plus:1803.8.021001 1803.8.021001
x64 netscalervpx-131 citrix netscaler5000platinum citrix:netscalervpx-131:netscaler5000platinum:131.24.38 131.24.38
x64 belvmusrvnginx01 belindaczsro1588885355210 belvmusrvnginx01 belindaczsro1588885355210:belvmusrvnginx01:belvmusrvnginx01:1.0.0 1.0.0
x64 marklogic-developer-10 marklogic ml10091_centos8 marklogic:marklogic-developer-10:ml10091_centos8:1.0.0 1.0.0
x64 warewolf warewolf-esb warewolf-developer warewolf-esb:warewolf:warewolf-developer:2.6.8 2.6.8
x64 rocky-linux-8-4 procomputers rocky-linux-8-4 procomputers:rocky-linux-8-4:rocky-linux-8-4:8.4.20210629 8.4.20210629
x64 f5-big-ip-per-app-ve f5-networks f5-big-awf-plus-pve-hourly-200mbps-po-0 f5-networks:f5-big-ip-per-app-ve:f5-big-awf-plus-pve-hourly-200mbps-po-0:14.1.506012 14.1.506012
x64 nvidia-quadro-vws-win2022 nvidia win2022-23-01-vgpu15-1 nvidia:nvidia-quadro-vws-win2022:win2022-23-01-vgpu15-1:22.01.23 22.01.23
x64 netscalervpx-121 citrix netscaler10platinum citrix:netscalervpx-121:netscaler10platinum:121.63.24 121.63.24
x64 nginx-plus-ent-v1 nginxinc nginx-plus-ent-ubuntu2204 nginxinc:nginx-plus-ent-v1:nginx-plus-ent-ubuntu2204:2.4.0 2.4.0
x64 hanu-insightv2-cicd hanu hanu-insight-v2-enterprise-byol-qa hanu:hanu-insightv2-cicd:hanu-insight-v2-enterprise-byol-qa:1.0.1 1.0.1
x64 canopycms-on-buntu apps-4-rent canopycms-on-buntu apps-4-rent:canopycms-on-buntu:canopycms-on-buntu:1.0.2 1.0.2
x64 nextcloud nextcloudgmbh1597841818906 nextcloud nextcloudgmbh1597841818906:nextcloud:nextcloud:4.5.0 4.5.0
x64 ubuntu-16-04-minimal-lts-cm cloudmavensolutions ubuntu-16-04-lts-minimal-cm cloudmavensolutions:ubuntu-16-04-minimal-lts-cm:ubuntu-16-04-lts-minimal-cm:22.04.07 22.04.07
x64 check-point-cg-r8110 checkpoint sg-ngtx checkpoint:check-point-cg-r8110:sg-ngtx:8110.900335.1266 8110.900335.1266
x64 linnovate-nodered meanio linnovate-nodered meanio:linnovate-nodered:linnovate-nodered:2.5.0 2.5.0
x64 docker-ce-debian-11 articentgroupllc1635512619530 docker-ce-debian-11 articentgroupllc1635512619530:docker-ce-debian-11:docker-ce-debian-11:1.0.0 1.0.0
x64 apache-subversion-svn-server-debian-10 articentgroupllc1635512619530 apache-subversion-svn-server-debian-10 articentgroupllc1635512619530:apache-subversion-svn-server-debian-10:apache-subversion-svn-server-debian-10:1.0.0 1.0.0
x64 mayando-iis8-sqlserver2008-win2012-r2 cognosys mayando-iis8-sqlserver2008-win2012-r2 cognosys:mayando-iis8-sqlserver2008-win2012-r2:mayando-iis8-sqlserver2008-win2012-r2:1.4.2 1.4.2
x64 joomla-v-3-9-26-04-05-20221 nilespartnersinc1617691698386 joomla nilespartnersinc1617691698386:joomla-v-3-9-26-04-05-20221:joomla:1.1.1 1.1.1
x64 fortinet_fortigate-vm_v5 fortinet fortinet_fg-vm_payg_20190624 fortinet:fortinet_fortigate-vm_v5:fortinet_fg-vm_payg_20190624:7.0.3 7.0.3
x64 grafana-on-centos79 apps-4-rent grafana-on-centos79 apps-4-rent:grafana-on-centos79:grafana-on-centos79:1.0.0 1.0.0
x64 ejabberd-community-edition process-one ejabberd-ubuntu process-one:ejabberd-community-edition:ejabberd-ubuntu:17.7.0 17.7.0
x64 vmseries-flex paloaltonetworks bundle2 paloaltonetworks:vmseries-flex:bundle2:9.1.8 9.1.8
x64 cis-almalinux8-l1 center-for-internet-security-inc cis-almalinux8-l1 center-for-internet-security-inc:cis-almalinux8-l1:cis-almalinux8-l1:2.0.15 2.0.15
x64 ad-dc-2016 cloud-infrastructure-services ad-dc-2016 cloud-infrastructure-services:ad-dc-2016:ad-dc-2016:0.0.7 0.0.7
x64 counter-strike-condition-zero-linux-stream-8 tidalmediainc counter-strike-condition-zero-linux-8 tidalmediainc:counter-strike-condition-zero-linux-stream-8:counter-strike-condition-zero-linux-8:1.0.0 1.0.0
x64 bravo-playout-vm evertzmicrosystemsltd1586877923009 bravo-playout-vm evertzmicrosystemsltd1586877923009:bravo-playout-vm:bravo-playout-vm:1.0.5 1.0.5
x64 netapp-ontap-cloud netapp ontap_cloud_pgo_ha_private_0 netapp:netapp-ontap-cloud:ontap_cloud_pgo_ha_private_0:9.110.20220302 9.110.20220302
x64 rockylinux-8 cognosys rockylinux-8 cognosys:rockylinux-8:rockylinux-8:22.04.02 22.04.02
x64 fme-core safesoftwareinc fme-core-2020-2-windows-byol safesoftwareinc:fme-core:fme-core-2020-2-windows-byol:1.0.0 1.0.0
x64 linnovate-cassandra meanio linnovate-cassandra meanio:linnovate-cassandra:linnovate-cassandra:2.4.0 2.4.0
x64 cloudera-data-platform-cdp-7_2 cloudera runtime-7_2_9 cloudera:cloudera-data-platform-cdp-7_2:runtime-7_2_9:6.19817697.1640157287 6.19817697.1640157287
x64 sftpgateway thorntechnologiesllc sftpgateway-3-5 thorntechnologiesllc:sftpgateway:sftpgateway-3-5:3.3.0 3.3.0
x64 redmine jetware-srl redmine33_postgresql-ubuntu-1604 jetware-srl:redmine:redmine33_postgresql-ubuntu-1604:1.0.170526 1.0.170526
x64 gradio-on-windows-server-2016 apps-4-rent gradio-on-windows-server-2016 apps-4-rent:gradio-on-windows-server-2016:gradio-on-windows-server-2016:20.09.03 20.09.03
x64 wordpress-with-centos-7-9 cognosys wordpress-with-centos-7-9 cognosys:wordpress-with-centos-7-9:wordpress-with-centos-7-9:24.01.31 24.01.31
x64 itrs-geneos-azure-monitoring itrsgroupltd1620310702149 itrs-geneos-azuremon-byol itrsgroupltd1620310702149:itrs-geneos-azure-monitoring:itrs-geneos-azuremon-byol:2.0.0 2.0.0
x64 netscalervpx-130 citrix netscaler10standard citrix:netscalervpx-130:netscaler10standard:130.89.7 130.89.7
x64 securesphere-waf-v14 imperva imperva-securesphere-waf-1 imperva:securesphere-waf-v14:imperva-securesphere-waf-1:14.7.20 14.7.20
x64 vantage-teradata-database teradata teradata-database-developer-1620 teradata:vantage-teradata-database:teradata-database-developer-1620:2.2.1 2.2.1
x64 julia-ubuntu-server-22-04 askforcloudllc1651766049149 julia-ubuntu-server-22-04-lts askforcloudllc1651766049149:julia-ubuntu-server-22-04:julia-ubuntu-server-22-04-lts:1.8.3 1.8.3
x64 3252-centos-85-cw cloudwhizsolutions pl-3252-centos-85-cw cloudwhizsolutions:3252-centos-85-cw:pl-3252-centos-85-cw:24.02.02 24.02.02
x64 lenovo-lmc-2h2021 lenovosoftware1604394104439 lmcplan01 lenovosoftware1604394104439:lenovo-lmc-2h2021:lmcplan01:1.0.0 1.0.0
x64 adcvpxfips-12-1 citrix netscalerfipsbyol citrix:adcvpxfips-12-1:netscalerfipsbyol:121.55.190 121.55.190
x64 secured-plone-on-ubuntu-14-04-lts cognosys secured-plone-on-ubuntu-14-04-lts cognosys:secured-plone-on-ubuntu-14-04-lts:secured-plone-on-ubuntu-14-04-lts:22.03.29 22.03.29
x64 alma-linux-8 procomputers alma-linux-8 procomputers:alma-linux-8:alma-linux-8:8.6.20221012 8.6.20221012
x64 mysql-8-with-centos-8-2 cognosys mysql-8-with-centos-8-2 cognosys:mysql-8-with-centos-8-2:mysql-8-with-centos-8-2:24.02.01 24.02.01
x64 odoo-on-ubuntu22 apps-4-rent odoo-on-ubuntu22 apps-4-rent:odoo-on-ubuntu22:odoo-on-ubuntu22:0.0.1 0.0.1
x64 php-7-4-on-windows-server-2019 cognosys php-7-4-on-windows-server-2019 cognosys:php-7-4-on-windows-server-2019:php-7-4-on-windows-server-2019:1.2019.1009 1.2019.1009
x64 netscalervpx-130 citrix netscaler1000standard citrix:netscalervpx-130:netscaler1000standard:130.92.18 130.92.18
x64 keras-tensorflow-on-ubuntu-20-04lts apps-4-rent keras-tensorflow-on-ubuntu-20-04lts apps-4-rent:keras-tensorflow-on-ubuntu-20-04lts:keras-tensorflow-on-ubuntu-20-04lts:0.0.1 0.0.1
x64 x-ray-vm jfrog x-ray-vm jfrog:x-ray-vm:x-ray-vm:0.0.10 0.0.10
x64 euc-hcs-uag-sig-test vmware-inc euc-hcs-uag-test-dev vmware-inc:euc-hcs-uag-sig-test:euc-hcs-uag-test-dev:22.03.13 22.03.13
x64 centos-8-minimal procomputers centos-8-minimal procomputers:centos-8-minimal:centos-8-minimal:8.3.20201208 8.3.20201208
x64 ntg_rocky_linux_8_6 ntegralinc1586961136942 ntg_rocky_linux_8_6 ntegralinc1586961136942:ntg_rocky_linux_8_6:ntg_rocky_linux_8_6:1.0.1 1.0.1
x64 active-directory-windows-server-2022-minimal tidalmediainc active-directory-windows-server-2022-minimal tidalmediainc:active-directory-windows-server-2022-minimal:active-directory-windows-server-2022-minimal:1.0.0 1.0.0
x64 flatcar-container-linux kinvolk beta kinvolk:flatcar-container-linux:beta:2920.1.0 2920.1.0
x64 vm_offer_datacollect energisme1601990637842 standard energisme1601990637842:vm_offer_datacollect:standard:2.4.3 2.4.3
x64 capi cncf-upstream ubuntu-2004-gen1 cncf-upstream:capi:ubuntu-2004-gen1:124.11.20230303 124.11.20230303
x64 docker-compose-oracle-9 articentgroupllc1635512619530 docker-compose-oracle-9 articentgroupllc1635512619530:docker-compose-oracle-9:docker-compose-oracle-9:1.0.0 1.0.0
x64 f5-big-ip-good f5-networks f5-bigip-virtual-edition-200m-good-hourly f5-networks:f5-big-ip-good:f5-bigip-virtual-edition-200m-good-hourly:13.1.500000 13.1.500000
x64 pulse-virtual-traffic-manager-with-waf2 pulse-secure vtm-csub-1000-m-waf pulse-secure:pulse-virtual-traffic-manager-with-waf2:vtm-csub-1000-m-waf:1.190200.0 1.190200.0
x64 cis-rhel-8-l2 center-for-internet-security-inc cis-redhat-linux8-l2-azure-observability-team center-for-internet-security-inc:cis-rhel-8-l2:cis-redhat-linux8-l2-azure-observability-team:2.0.17 2.0.17
x64 holm_security_scanner_appliance holmsecurityswedenab1639511288603 holm_security_scanner_appliance_plan holmsecurityswedenab1639511288603:holm_security_scanner_appliance:holm_security_scanner_appliance_plan:47.0.0 47.0.0
x64 nginx_plus_with_nginx_app_protect_premium nginxinc nginx_plus_with_nginx_app_protect_prem_debian11 nginxinc:nginx_plus_with_nginx_app_protect_premium:nginx_plus_with_nginx_app_protect_prem_debian11:3.1.0 3.1.0
x64 yetiforce-on-ubuntu-2004 apps-4-rent yetiforce-on-ubuntu2004 apps-4-rent:yetiforce-on-ubuntu-2004:yetiforce-on-ubuntu2004:1.0.0 1.0.0
x64 fortinet_fortigate-vm_v5 fortinet fortinet_fg_ey_private_offer_20221102 fortinet:fortinet_fortigate-vm_v5:fortinet_fg_ey_private_offer_20221102:6.4.8 6.4.8
x64 debian_10_min_squid_protected virtualpulsesro1607008728942 debian_10_min_squid_protected virtualpulsesro1607008728942:debian_10_min_squid_protected:debian_10_min_squid_protected:1.0.0 1.0.0
x64 djangostack Bitnami 1-8 Bitnami:djangostack:1-8:4.2.2113357573 4.2.2113357573
x64 cdp-7_2_12 cloudera runtime-7_2_12 cloudera:cdp-7_2_12:runtime-7_2_12:9.32878689.1669254404 9.32878689.1669254404
x64 pulse-virtual-traffic-manager-with-waf3 pulse-secure vtm-csub-2000-l-waf pulse-secure:pulse-virtual-traffic-manager-with-waf3:vtm-csub-2000-l-waf:1.180202.0 1.180202.0
x64 netbackup-8-0 veritas netbackup-10-1-1 veritas:netbackup-8-0:netbackup-10-1-1:10.1.1 10.1.1
x64 zendphp-rhel-8-nginx perforce zendphp-rhel-8-nginx-byol perforce:zendphp-rhel-8-nginx:zendphp-rhel-8-nginx-byol:1.0.6 1.0.6
x64 kanboard-server-debian-11-minimal articentgroupllc1635512619530 kanboard-server-debian-11-minimal articentgroupllc1635512619530:kanboard-server-debian-11-minimal:kanboard-server-debian-11-minimal:1.0.0 1.0.0
x64 tkg-capi-2022-06-24 vmware-inc k8s-1dot22dot17-ubuntu-2004 vmware-inc:tkg-capi-2022-06-24:k8s-1dot22dot17-ubuntu-2004:2023.01.03 2023.01.03
x64 wfp diladele wfp-27-byol diladele:wfp:wfp-27-byol:2.7.00230228 2.7.00230228
x64 artifactory-vm jfrog artifactory-vm-private jfrog:artifactory-vm:artifactory-vm-private:6.18.0 6.18.0
x64 active_directory_windows_server_2022 virtualpulsesro1607008728942 active_directory_windows_server_2022 virtualpulsesro1607008728942:active_directory_windows_server_2022:active_directory_windows_server_2022:1.0.0 1.0.0
x64 netscalervpx-131 citrix netscaler1000platinum citrix:netscalervpx-131:netscaler1000platinum:131.4.43 131.4.43
x64 vault_on_windows_server_2019 askforcloudllc1651766049149 vault_on_windows_server_2019 askforcloudllc1651766049149:vault_on_windows_server_2019:vault_on_windows_server_2019:0.0.1 0.0.1
x64 mantis-2 athinfosystems1641442221349 mantisbt athinfosystems1641442221349:mantis-2:mantisbt:2.26.0 2.26.0
x64 cap-deploy-byos SUSE gen2 SUSE:cap-deploy-byos:gen2:2020.06.26 2020.06.26
x64 fortinet-fortimanager fortinet fortinet-fortimanager fortinet:fortinet-fortimanager:fortinet-fortimanager:7.0.2 7.0.2
x64 prm-901-vm aciworldwide prm-911-0-5 aciworldwide:prm-901-vm:prm-911-0-5:911.1.0 911.1.0
x64 foundation-anssiehigh-ol9-x86 aldercapitalllc1682703876147 standard aldercapitalllc1682703876147:foundation-anssiehigh-ol9-x86:standard:1.0.0 1.0.0
x64 keysight-ixnetwork-virtual-edition keysight-technologies-ixvm keysight-ixnetwork-virtual-edition-client keysight-technologies-ixvm:keysight-ixnetwork-virtual-edition:keysight-ixnetwork-virtual-edition-client:10.00.1 10.00.1
x64 zendphp-debian-12-apache perforce zendphp-debian-12-apache-periodic perforce:zendphp-debian-12-apache:zendphp-debian-12-apache-periodic:2023.09.12 2023.09.12
x64 capi cncf-upstream ubuntu-2204-gen1 cncf-upstream:capi:ubuntu-2204-gen1:126.2.20230303 126.2.20230303
x64 vmseries-flex paloaltonetworks bundle3 paloaltonetworks:vmseries-flex:bundle3:10.2.2 10.2.2
x64 infoscale veritas infoscale741-rhel8 veritas:infoscale:infoscale741-rhel8:1.0.0 1.0.0
x64 flatcar-container-linux kinvolk alpha-gen2 kinvolk:flatcar-container-linux:alpha-gen2:3874.0.0 3874.0.0
x64 linux_8_3_cs_condition_zero virtualpulsesro1607008728942 linux_8_3_cs_condition_zero virtualpulsesro1607008728942:linux_8_3_cs_condition_zero:linux_8_3_cs_condition_zero:1.0.0 1.0.0
x64 faddom_azure_1 faddomltd1673360856547 faddom123 faddomltd1673360856547:faddom_azure_1:faddom123:2023.4.44 2023.4.44
x64 check-point-vsec-r80 checkpoint sg-ngtx-private1 checkpoint:check-point-vsec-r80:sg-ngtx-private1:8010.90034.0450 8010.90034.0450
x64 comunity-rapid-digitsation-platform comunity crdp_george_07_21_standard_powerpack comunity:comunity-rapid-digitsation-platform:crdp_george_07_21_standard_powerpack:1.0.5 1.0.5
x64 nodejs vmlabinc1613642184700 nodejs13-mongodb42-mysql57-centos vmlabinc1613642184700:nodejs:nodejs13-mongodb42-mysql57-centos:13.14.042570 13.14.042570
x64 nginx-plus-v1-standard nginxinc nginx-plus-rhel8 nginxinc:nginx-plus-v1-standard:nginx-plus-rhel8:9.2.0 9.2.0
x64 netscaler-130-ma-service-agent citrix netscaler-ma-service-agent citrix:netscaler-130-ma-service-agent:netscaler-ma-service-agent:130.57.37 130.57.37
x64 kafka vmlabinc1613642184700 kafka32-ubuntu vmlabinc1613642184700:kafka:kafka32-ubuntu:3.2.1 3.2.1
x64 0eeb7094-2144-42ac-98ef-a77e126bb4b9 cloudimg1647283583153 0eeb7094-2144-42ac-98ef-a77e126bb4b9 cloudimg1647283583153:0eeb7094-2144-42ac-98ef-a77e126bb4b9:0eeb7094-2144-42ac-98ef-a77e126bb4b9:1.0.0 1.0.0
x64 netscalervpx-121 citrix netscaler200standard citrix:netscalervpx-121:netscaler200standard:121.65.15 121.65.15
x64 openjdk17 gatlingcorp openjdk17 gatlingcorp:openjdk17:openjdk17:1.0.7 1.0.7
x64 brocade-virtual-traffic-manager-with-waf-module brocade_communications stm_csub_1000_l_saf_64 brocade_communications:brocade-virtual-traffic-manager-with-waf-module:stm_csub_1000_l_saf_64:1.100401.0 1.100401.0
x64 fortinet-fortisiem-vm fortinet fortinet-fortisiem-byol fortinet:fortinet-fortisiem-vm:fortinet-fortisiem-byol:6.7.5 6.7.5
x64 ntg_rocky_linux_8_5_minimal ntegralinc1586961136942 ntg_rocky_linux_8_5_minimal ntegralinc1586961136942:ntg_rocky_linux_8_5_minimal:ntg_rocky_linux_8_5_minimal:1.0.2 1.0.2
x64 debian_11_docker_compose virtualpulsesro1607008728942 debian_11_compose_docker virtualpulsesro1607008728942:debian_11_docker_compose:debian_11_compose_docker:1.0.0 1.0.0
x64 playwright-headless noricumcloudsolutions1600524477681 hourly noricumcloudsolutions1600524477681:playwright-headless:hourly:1.0.0 1.0.0
x64 sdkms-sgx-vhd fortanix non-sgx-plan fortanix:sdkms-sgx-vhd:non-sgx-plan:4.4.20282226 4.4.20282226
x64 capi-windows cncf-upstream windows-2022-containerd-gen1 cncf-upstream:capi-windows:windows-2022-containerd-gen1:127.5.20230830 127.5.20230830
x64 gitea-on-debian10 apps-4-rent gitea-on-debian10 apps-4-rent:gitea-on-debian10:gitea-on-debian10:1.0.0 1.0.0
x64 ics-payg-windows informatica ics-payg-windows informatica:ics-payg-windows:ics-payg-windows:2.0.0 2.0.0
x64 baffle-application-data-protection baffle-io azu-badp-00090-t baffle-io:baffle-application-data-protection:azu-badp-00090-t:0.0.17 0.0.17
x64 owasp-zap pnop standard pnop:owasp-zap:standard:2.10.02107040 2.10.02107040
x64 aiscaler-traffic-manager-caching aiscaler-cache-control-ddos-and-url-rewriting- byol aiscaler-cache-control-ddos-and-url-rewriting-:aiscaler-traffic-manager-caching:byol:1.0.0 1.0.0
x64 wallixaccessmanager wallix accessmanager-3 wallix:wallixaccessmanager:accessmanager-3:3.0.15 3.0.15
x64 virtual-network-sensor-byol trendmicro virtual-network-sensor-byol trendmicro:virtual-network-sensor-byol:virtual-network-sensor-byol:1.0.1227 1.0.1227
x64 tkg-capi-2022-06-24 vmware-inc k8s-1dot23dot8-ubuntu-2004 vmware-inc:tkg-capi-2022-06-24:k8s-1dot23dot8-ubuntu-2004:2022.07.20 2022.07.20
x64 vsftp-linux-redhat-8-6-minimal articentgroupllc1635512619530 vsftp-linux-redhat-8-6-minimal articentgroupllc1635512619530:vsftp-linux-redhat-8-6-minimal:vsftp-linux-redhat-8-6-minimal:1.0.1 1.0.1
x64 pallecamusaspoc cloudsecurity pallecamusaspoc cloudsecurity:pallecamusaspoc:pallecamusaspoc:1.0.3 1.0.3
x64 ackee-analytics-server-linux-7-9 articentgroupllc1635512619530 ackee-analytics-server-linux-7-9 articentgroupllc1635512619530:ackee-analytics-server-linux-7-9:ackee-analytics-server-linux-7-9:1.0.0 1.0.0
x64 ribbon_sbc_swe-lite_vm_preview ribboncommunications ribbon_sbc_swe-lite_vm_preview ribboncommunications:ribbon_sbc_swe-lite_vm_preview:ribbon_sbc_swe-lite_vm_preview:11.0001.47 11.0001.47
x64 unified-security-management-anywhere alienvault unified-security-management-anywhere alienvault:unified-security-management-anywhere:unified-security-management-anywhere:7.0.699 7.0.699
x64 project_tools_vm profecia pit_vm29 profecia:project_tools_vm:pit_vm29:1.0.29 1.0.29
x64 wiki-js-wiki-engine-server-linux-stream-8 tidalmediainc wiki-js-wiki-engine-server-linux-stream-8 tidalmediainc:wiki-js-wiki-engine-server-linux-stream-8:wiki-js-wiki-engine-server-linux-stream-8:1.0.0 1.0.0
x64 forcepoint-ngfw forcepoint-llc ngfw_byol forcepoint-llc:forcepoint-ngfw:ngfw_byol:6.8.0 6.8.0
x64 nvidia-omniverse-workstation nvidia ove nvidia:nvidia-omniverse-workstation:ove:1.0.0 1.0.0
x64 cyber-security-assesment-tool qs-solutions csat2055 qs-solutions:cyber-security-assesment-tool:csat2055:2.05.5 2.05.5
x64 Oracle-Linux Oracle ol85-lvm-gen2 Oracle:Oracle-Linux:ol85-lvm-gen2:8.5.14 8.5.14
x64 manageengine-admanager-plus-1-domain-10-helpdesk manageengine admanager-plus-1-domain-10-helpdesk manageengine:manageengine-admanager-plus-1-domain-10-helpdesk:admanager-plus-1-domain-10-helpdesk:1.0.1 1.0.1
x64 kafka vmlabinc1613642184700 kafka-ubuntu vmlabinc1613642184700:kafka:kafka-ubuntu:2.4.00 2.4.00
x64 thingsboard-on-windows-server2022 apps-4-rent thingsboard-on-windows-server2022 apps-4-rent:thingsboard-on-windows-server2022:thingsboard-on-windows-server2022:1.0.0 1.0.0
x64 netscalervpx-141 citrix netscaler10standard citrix:netscalervpx-141:netscaler10standard:141.12.35 141.12.35
x64 jenkins-operations-center cloudbees jenkins-operations-center-team cloudbees:jenkins-operations-center:jenkins-operations-center-team:17.8.20 17.8.20
x64 shotcut-on-windows20 apps-4-rent shotcut-on-windows-server-2022 apps-4-rent:shotcut-on-windows20:shotcut-on-windows-server-2022:1.0.1 1.0.1
x64 ejbca_enterprise_cloud_ra_private_vhd primekey ejbca_enterprise_ra_8x5 primekey:ejbca_enterprise_cloud_ra_private_vhd:ejbca_enterprise_ra_8x5:3.4.0 3.4.0
x64 ntg_avd_kali_linux ntegralinc1586961136942 ntg_avd_kali_linux_mspc ntegralinc1586961136942:ntg_avd_kali_linux:ntg_avd_kali_linux_mspc:1.0.4 1.0.4
x64 docker yaseensmarket1645449809728 docker-ubuntu-minimal-china yaseensmarket1645449809728:docker:docker-ubuntu-minimal-china:22.04.0 22.04.0
x64 vantage-teradata-database teradata teradata-database-advanced-1620-256 teradata:vantage-teradata-database:teradata-database-advanced-1620-256:2.4.1 2.4.1
x64 cortex-certifai-pro cognitive-scale cortex-certifai-pro-private cognitive-scale:cortex-certifai-pro:cortex-certifai-pro-private:1.3.3 1.3.3
x64 cisco-csr-100v cisco 17_06_02-payg-advantage cisco:cisco-csr-100v:17_06_02-payg-advantage:17.06.0220220217 17.06.0220220217
x64 capi-windows cncf-upstream windows-2019-containerd-gen1 cncf-upstream:capi-windows:windows-2019-containerd-gen1:127.4.20230720 127.4.20230720
x64 almalinux-8-8 procomputers almalinux-8-8 procomputers:almalinux-8-8:almalinux-8-8:8.8.20230823 8.8.20230823
x64 artifactory-vm jfrog artifactory-vm jfrog:artifactory-vm:artifactory-vm:0.0.33 0.0.33
x64 linux_7_9_minimal_jitsi virtualpulsesro1607008728942 linux_7_9_minimal_jitsi virtualpulsesro1607008728942:linux_7_9_minimal_jitsi:linux_7_9_minimal_jitsi:1.0.0 1.0.0
x64 centos-8-latest cognosys centos-8-latest cognosys:centos-8-latest:centos-8-latest:1.2020.0811 1.2020.0811
x64 cyberpanel litespeedtechnologies cyberpanel-gen2 litespeedtechnologies:cyberpanel:cyberpanel-gen2:2.3.4 2.3.4
x64 netscalervpx-121 citrix netscaler1000platinum citrix:netscalervpx-121:netscaler1000platinum:121.63.23 121.63.23
x64 nfs-server-win-2016 tidalmediainc nfs-win-2016 tidalmediainc:nfs-server-win-2016:nfs-win-2016:1.0.2 1.0.2
x64 capi-windows cncf-upstream windows-2019-containerd-gen1 cncf-upstream:capi-windows:windows-2019-containerd-gen1:123.10.20220819 123.10.20220819
x64 chef-on-centos7 apps-4-rent chef-on-centos7 apps-4-rent:chef-on-centos7:chef-on-centos7:1.0.0 1.0.0
x64 waf barracudanetworks private-waf-hourly-blackboard barracudanetworks:waf:private-waf-hourly-blackboard:9.2.002004 9.2.002004
x64 piwik-with-windows-server-2016-free cognosys piwik-with-windows-server-2016-free cognosys:piwik-with-windows-server-2016-free:piwik-with-windows-server-2016-free:1.2019.1009 1.2019.1009
x64 vertica-disk-image micro-focus vertica-centos micro-focus:vertica-disk-image:vertica-centos:120002.0.20221109 120002.0.20221109
x64 trac-system-server-windows-server-2016-dc articentgroupllc1635512619530 trac-system-server-windows-server-2016-dc articentgroupllc1635512619530:trac-system-server-windows-server-2016-dc:trac-system-server-windows-server-2016-dc:1.0.0 1.0.0
x64 mediawiki vmlabinc1613642184700 mediawiki-ubuntu vmlabinc1613642184700:mediawiki:mediawiki-ubuntu:1.40.1 1.40.1
x64 nvidia-quadro-vws-win2022 nvidia win2022-23-06-vgpu17-0 nvidia:nvidia-quadro-vws-win2022:win2022-23-06-vgpu17-0:24.02.27 24.02.27
x64 netscalervpx-141 citrix netscaler3000standard citrix:netscalervpx-141:netscaler3000standard:141.17.38 141.17.38
x64 nginx-plus-v1-standard nginxinc nginx-plus-ubuntu2204 nginxinc:nginx-plus-v1-standard:nginx-plus-ubuntu2204:2.2.0 2.2.0
x64 pulse-virtual-traffic-manager2 pulse-secure vtm-csp-500-l pulse-secure:pulse-virtual-traffic-manager2:vtm-csp-500-l:1.190203.0 1.190203.0
x64 squid-on-windows-server-2019 cognosys squid-on-windows-server-2019 cognosys:squid-on-windows-server-2019:squid-on-windows-server-2019:1.2019.1010 1.2019.1010
x64 ubuntu-minimal-21-04 cloud-infrastructure-services ubuntu-minimal-21-04 cloud-infrastructure-services:ubuntu-minimal-21-04:ubuntu-minimal-21-04:0.0.1 0.0.1
x64 aruba_cppm_6-12 hewlettpackardenterprise1 clearpass_6_12_0 hewlettpackardenterprise1:aruba_cppm_6-12:clearpass_6_12_0:6.12.0 6.12.0
x64 nextcloud vmlabinc1613642184700 nextcloud-lamp-centos vmlabinc1613642184700:nextcloud:nextcloud-lamp-centos:27.1.1 27.1.1
x64 norsync_cloud norsync norsync_cloud norsync:norsync_cloud:norsync_cloud:1.0.7 1.0.7
x64 weblogic-141100-jdk8-rhel87 Oracle owls-141100-jdk8-rhel87 Oracle:weblogic-141100-jdk8-rhel87:owls-141100-jdk8-rhel87:1.1.2 1.1.2
x64 dns-server-iaas-linux-stream-8 tidalmediainc dns-server-iaas-linux-stream-8 tidalmediainc:dns-server-iaas-linux-stream-8:dns-server-iaas-linux-stream-8:1.0.0 1.0.0
x64 genymotion-cloud genymobile genymotion-8-1 genymobile:genymotion-cloud:genymotion-8-1:11.0.0 11.0.0
x64 flatcar-container-linux-corevm-amd64 kinvolk beta-gen2 kinvolk:flatcar-container-linux-corevm-amd64:beta-gen2:3602.1.0 3602.1.0
x64 cloudeos-router-payg arista-networks cloudeos-4_29_0-payg arista-networks:cloudeos-router-payg:cloudeos-4_29_0-payg:4.29.0 4.29.0
x64 delphix-continuous-compliance delphix delphix-continuous-compliance delphix:delphix-continuous-compliance:delphix-continuous-compliance:20.0.00 20.0.00
x64 helpy-pro helpyio helpypro helpyio:helpy-pro:helpypro:2.5.0 2.5.0
x64 f5-big-ip-byol f5-networks f5-big-all-2slot-byol f5-networks:f5-big-ip-byol:f5-big-all-2slot-byol:16.1.402000 16.1.402000
x64 nginx-plus-v1-standard nginxinc nginx-plus-std-centos7-po-att-full nginxinc:nginx-plus-v1-standard:nginx-plus-std-centos7-po-att-full:6.3.0 6.3.0
Arm64 CentOS OpenLogic 7_9-arm64 OpenLogic:CentOS:7_9-arm64:7.9.2023010302 7.9.2023010302
x64 veeam_service_provider_console veeam veeamserviceproviderconsole veeam:veeam_service_provider_console:veeamserviceproviderconsole:4.0.1 4.0.1
x64 sig-sample-offer test_test_mix3pptest0011614206850774 plan5 test_test_mix3pptest0011614206850774:sig-sample-offer:plan5:1.0.0 1.0.0
x64 sec1036-secured-postgresql-on-ubuntu-1404 cognosys sec1036-secured-postgresql-on-ubuntu-1404 cognosys:sec1036-secured-postgresql-on-ubuntu-1404:sec1036-secured-postgresql-on-ubuntu-1404:1.2.2 1.2.2
x64 netapp-ontap-cloud netapp private_40_standard_premium netapp:netapp-ontap-cloud:private_40_standard_premium:9.111.20221014 9.111.20221014
x64 ejbca_enterprise_cloud_va_private_vhd primekey ejbca_enterprise_va_8x5 primekey:ejbca_enterprise_cloud_va_private_vhd:ejbca_enterprise_va_8x5:3.2.1 3.2.1
x64 euc-hcs-uag-sig-test vmware-inc euc-hcs-uag-test-dev vmware-inc:euc-hcs-uag-sig-test:euc-hcs-uag-test-dev:22.12.3 22.12.3
x64 euc-hcs-uag-sig-test vmware-inc euc-hcs-uag-test-dev vmware-inc:euc-hcs-uag-sig-test:euc-hcs-uag-test-dev:23.09.6 23.09.6
x64 jenkins2022 globalsolutions jenkins2022 globalsolutions:jenkins2022:jenkins2022:1.0.0 1.0.0
x64 vthunder-414-gr1 a10networks vthunder-414gr1-byol a10networks:vthunder-414-gr1:vthunder-414gr1-byol:1.0.0 1.0.0
x64 playfab_xr asdivertissementinc1617837708654 xr-enterprise-gov-v01 asdivertissementinc1617837708654:playfab_xr:xr-enterprise-gov-v01:2.0.0 2.0.0
x64 ntg_oracle_8_daas ntegralinc1586961136942 ntg_oracle_8_daas ntegralinc1586961136942:ntg_oracle_8_daas:ntg_oracle_8_daas:1.0.0 1.0.0
x64 cis-windows-server-2016-v1-0-0-l1 center-for-internet-security-inc cis-ws2016-l1-vw-po center-for-internet-security-inc:cis-windows-server-2016-v1-0-0-l1:cis-ws2016-l1-vw-po:2.0.5 2.0.5
x64 almalinux-hpc almalinux 8_7-hpc-gen2 almalinux:almalinux-hpc:8_7-hpc-gen2:8.7.2023111401 8.7.2023111401
x64 aviatrix-companion-gateway-v14 aviatrix-systems aviatrix-companion-gateway-v14u aviatrix-systems:aviatrix-companion-gateway-v14:aviatrix-companion-gateway-v14u:7.0.8 7.0.8
x64 gajshieldngfwpayg gajshieldinfotechindiapvtltd1693211201273 gajshieldngfwpayg gajshieldinfotechindiapvtltd1693211201273:gajshieldngfwpayg:gajshieldngfwpayg:4.33.6 4.33.6
x64 os11-vm-baseimage outsystems platformserver outsystems:os11-vm-baseimage:platformserver:1.8.0 1.8.0
x64 nsx-cloud-service-manager-test vmware-inc byol-3-1-1-test vmware-inc:nsx-cloud-service-manager-test:byol-3-1-1-test:0.0.17767416 0.0.17767416
x64 profiseeservenswrv7 profisee nswv72019 profisee:profiseeservenswrv7:nswv72019:7.2.1 7.2.1
x64 bcmni-azure-9-1-free brightcomputing bcm-ni-azure-9-1-free brightcomputing:bcmni-azure-9-1-free:bcm-ni-azure-9-1-free:9.1.6 9.1.6
x64 mysql Bitnami default Bitnami:mysql:default:8.0.2113295346 8.0.2113295346
x64 netscalervpx-131 citrix netscaler200platinum citrix:netscalervpx-131:netscaler200platinum:131.51.15 131.51.15
x64 yetiforce-on-debian11 apps-4-rent yetiforce-on-debian11 apps-4-rent:yetiforce-on-debian11:yetiforce-on-debian11:1.0.0 1.0.0
x64 check-point-cg-r8110 checkpoint sg-ngtx checkpoint:check-point-cg-r8110:sg-ngtx:8110.900335.0883 8110.900335.0883
x64 piwigo-system-server-linux-stream-8-minimal articentgroupllc1635512619530 piwigo-system-server-linux-stream-8-minimal articentgroupllc1635512619530:piwigo-system-server-linux-stream-8-minimal:piwigo-system-server-linux-stream-8-minimal:1.0.0 1.0.0
x64 cm_ce thalesdiscplusainc1596561677238 ciphertrust_manager_ce thalesdiscplusainc1596561677238:cm_ce:ciphertrust_manager_ce:2.13.10196 2.13.10196
x64 capi cncf-upstream ubuntu-2204-gen1 cncf-upstream:capi:ubuntu-2204-gen1:125.14.20230918 125.14.20230918
x64 redhat-8-5-gen2 procomputers redhat-8-5-gen2 procomputers:redhat-8-5-gen2:redhat-8-5-gen2:8.5.2021101305 8.5.2021101305
x64 centos-8-lvm procomputers centos-8-lvm procomputers:centos-8-lvm:centos-8-lvm:8.3.20210125 8.3.20210125
x64 tkg-capi vmware-inc k8s-1dot19dot9-ubuntu-1804 vmware-inc:tkg-capi:k8s-1dot19dot9-ubuntu-1804:2021.04.17 2021.04.17
x64 secured-testlink-on-ubuntu-14-04-lts cognosys secured-testlink-on-ubuntu-14-04-lts cognosys:secured-testlink-on-ubuntu-14-04-lts:secured-testlink-on-ubuntu-14-04-lts:22.03.29 22.03.29
x64 gigamon-gigavue-cloud-suite gigamon-inc gigavue-securevue-v6500-250tb gigamon-inc:gigamon-gigavue-cloud-suite:gigavue-securevue-v6500-250tb:6.5.01 6.5.01
x64 golang-on-debian11 apps-4-rent golang-on-debian11 apps-4-rent:golang-on-debian11:golang-on-debian11:1.0.0 1.0.0
x64 marklogic-developer-10 marklogic ml10082_centos marklogic:marklogic-developer-10:ml10082_centos:1.0.0 1.0.0
x64 nginx-with-centos-77-free cognosys nginx-with-centos-77-free cognosys:nginx-with-centos-77-free:nginx-with-centos-77-free:23.08.06 23.08.06
x64 xilinx_alveo_u250_deployment_vm_ubuntu1804_032321 xilinx xilinx_alveo_u250_deployment_vm_ubuntu_1804_032321 xilinx:xilinx_alveo_u250_deployment_vm_ubuntu1804_032321:xilinx_alveo_u250_deployment_vm_ubuntu_1804_032321:17.0.0 17.0.0
x64 ntg_centos_7_docker ntegralinc1586961136942 ntg_centos_7_docker ntegralinc1586961136942:ntg_centos_7_docker:ntg_centos_7_docker:1.0.0 1.0.0
x64 flashgrid-skycluster flashgrid-inc cluster-rhel7-1month-free-trial flashgrid-inc:flashgrid-skycluster:cluster-rhel7-1month-free-trial:23.02.20230302 23.02.20230302
x64 sle-hpc-15-sp5-byos SUSE gen2 SUSE:sle-hpc-15-sp5-byos:gen2:2024.02.06 2024.02.06
x64 4218-nginx-on-hardened-ubuntu-2004-lts-focal cognosys 4218-nginx-on-hardened-ubuntu-2004-lts-focal cognosys:4218-nginx-on-hardened-ubuntu-2004-lts-focal:4218-nginx-on-hardened-ubuntu-2004-lts-focal:24.03.06 24.03.06
x64 johnsnowlabs_nlp johnsnowlabsinc1646051154808 nlp_1 johnsnowlabsinc1646051154808:johnsnowlabs_nlp:nlp_1:5.2.0 5.2.0
x64 postgres-pro-enterprise-96-vm postgres-pro pgpro-ent96-centos7-x64-hourly postgres-pro:postgres-pro-enterprise-96-vm:pgpro-ent96-centos7-x64-hourly:96.241.20221012 96.241.20221012
x64 centos-stream-9-minimal procomputers centos-stream-9-minimal procomputers:centos-stream-9-minimal:centos-stream-9-minimal:9.2023.0217 9.2023.0217
x64 arcgis-enterprise-107 esri byol-1071 esri:arcgis-enterprise-107:byol-1071:10.7.11595 10.7.11595
x64 libreoffice-on-windows-server2022 apps-4-rent libreoffice-on-windows-server2022 apps-4-rent:libreoffice-on-windows-server2022:libreoffice-on-windows-server2022:0.0.1 0.0.1
x64 netmail-search netmail c2a netmail:netmail-search:c2a:6.4.0 6.4.0
x64 postgres-pro-enterprise-12-vm postgres-pro pgpro-ent12-centos7-x64-hourly postgres-pro:postgres-pro-enterprise-12-vm:pgpro-ent12-centos7-x64-hourly:12.132.20221217 12.132.20221217
x64 mongodb-on-centos-75 apps-4-rent mongodb-on-centos-75 apps-4-rent:mongodb-on-centos-75:mongodb-on-centos-75:2.0.0 2.0.0
x64 kafka vmlabinc1613642184700 kafka30-centos vmlabinc1613642184700:kafka:kafka30-centos:3.0.2 3.0.2
x64 xenapp-vda-vdi citrix server2016vdi citrix:xenapp-vda-vdi:server2016vdi:7.15.0 7.15.0
x64 liquidfiles liquid-files liquidfiles liquid-files:liquidfiles:liquidfiles:3.3.16 3.3.16
x64 postgresql vmlabinc1613642184700 postgresql96-ubuntu vmlabinc1613642184700:postgresql:postgresql96-ubuntu:9.6.242 9.6.242
x64 nsx-cloud-service-manager-test vmware-inc byol-3-2-0-test vmware-inc:nsx-cloud-service-manager-test:byol-3-2-0-test:0.0.21607621 0.0.21607621
x64 f5-big-ip-better f5-networks f5-bigip-virtual-edition-10g-better-hourly f5-networks:f5-big-ip-better:f5-bigip-virtual-edition-10g-better-hourly:17.1.100002 17.1.100002
x64 euc-hcs-jumpbox vmware-inc euc-hcs-jumpbox vmware-inc:euc-hcs-jumpbox:euc-hcs-jumpbox:2023.02.25 2023.02.25
x64 vyos-1-2-lts-on-azure sentriumsl vyos-azure-stack-hub sentriumsl:vyos-1-2-lts-on-azure:vyos-azure-stack-hub:1.3.5 1.3.5
x64 gocd-on-windows-server2019 apps-4-rent gocd-on-windows-server2019 apps-4-rent:gocd-on-windows-server2019:gocd-on-windows-server2019:1.0.0 1.0.0
x64 netscalervpx-130 citrix netscalervpxexpress citrix:netscalervpx-130:netscalervpxexpress:130.76.31 130.76.31
x64 rsa-nw-suite-11-7-1-0 rsa-security-llc rsa-nw-suite-11-7-1-0 rsa-security-llc:rsa-nw-suite-11-7-1-0:rsa-nw-suite-11-7-1-0:11.7.1 11.7.1
x64 hpcbox-cluster-gpu-node drizti 1-1-4 drizti:hpcbox-cluster-gpu-node:1-1-4:2.0.2 2.0.2
x64 ntg_ma_parrot_os ntegralinc1586961136942 ntg_ma_parrot_os_5 ntegralinc1586961136942:ntg_ma_parrot_os:ntg_ma_parrot_os_5:1.0.0 1.0.0
x64 capi-windows cncf-upstream windows-2022-containerd-gen1 cncf-upstream:capi-windows:windows-2022-containerd-gen1:125.9.20230417 125.9.20230417
x64 bcmni-azure-9-1 brightcomputing bcm-ni-azure-9-1-v2 brightcomputing:bcmni-azure-9-1:bcm-ni-azure-9-1-v2:9.1.8 9.1.8
x64 lynis-on-redhat apps-4-rent lynis-on-redhat apps-4-rent:lynis-on-redhat:lynis-on-redhat:0.0.1 0.0.1
x64 cdp-7_2_17 cloudera runtime-7_2_17-private cloudera:cdp-7_2_17:runtime-7_2_17-private:300.49883770.1707299509 300.49883770.1707299509
x64 tomcat2022 globalsolutions tomcat2022 globalsolutions:tomcat2022:tomcat2022:1.0.0 1.0.0
x64 almalinux almalinux 9-gen2 almalinux:almalinux:9-gen2:9.1.2022122801 9.1.2022122801
x64 plamdrstagingazurelec cloudsecurity plamdrstagingazurelec cloudsecurity:plamdrstagingazurelec:plamdrstagingazurelec:1.0.3 1.0.3
x64 check-point-cg-r8040 checkpoint ministry-of-home-affairs-sg checkpoint:check-point-cg-r8040:ministry-of-home-affairs-sg:8040.900294.1498 8040.900294.1498
x64 aviatrix-bundle-payg aviatrix-systems aviatrix-enterprise-bundle-byol aviatrix-systems:aviatrix-bundle-payg:aviatrix-enterprise-bundle-byol:7.0.5 7.0.5
x64 consul-platform-ubuntu-20-04 articentgroupllc1635512619530 consul-platform-ubuntu-20-04 articentgroupllc1635512619530:consul-platform-ubuntu-20-04:consul-platform-ubuntu-20-04:1.0.0 1.0.0
x64 4157-apache-tomcat-on-hardened-red-hat-enterprise cognosys pl-4157-apache-tomcathardened-red-hat-enterprise cognosys:4157-apache-tomcat-on-hardened-red-hat-enterprise:pl-4157-apache-tomcathardened-red-hat-enterprise:24.01.31 24.01.31
x64 kali-linux-on-azure askforcloudllc1651766049149 kali-linux-on-azure askforcloudllc1651766049149:kali-linux-on-azure:kali-linux-on-azure:0.0.1 0.0.1
x64 rocky-linux-8-lvm procomputers rocky-linux-8-lvm procomputers:rocky-linux-8-lvm:rocky-linux-8-lvm:8.9.20231217 8.9.20231217
x64 flynet-viewer-te flynet flynet-viewer-te flynet:flynet-viewer-te:flynet-viewer-te:1.0.2 1.0.2
x64 financial-crimes-toolkit-v6_0_1 experollc1644352127859 plan1 experollc1644352127859:financial-crimes-toolkit-v6_0_1:plan1:6.0.1 6.0.1
x64 filemage-gateway-vm filemagellc filemage-gateway-vm-003 filemagellc:filemage-gateway-vm:filemage-gateway-vm-003:1.5.7 1.5.7
x64 playwright-headless noricumcloudsolutions1600524477681 playwright_headless_ubuntu noricumcloudsolutions1600524477681:playwright-headless:playwright_headless_ubuntu:1.0.5 1.0.5
x64 linnovate-baserow meanio linnovate-baserow meanio:linnovate-baserow:linnovate-baserow:2.4.0 2.4.0
x64 capi cncf-upstream ubuntu-2204-gen1 cncf-upstream:capi:ubuntu-2204-gen1:125.4.20221129 125.4.20221129
x64 waf barracudanetworks private-waf-hourly-fus-sea-prod barracudanetworks:waf:private-waf-hourly-fus-sea-prod:11.00.015 11.00.015
x64 checkmk003 tribe29gmbh1665582614827 checkmk_cloud_edition_22 tribe29gmbh1665582614827:checkmk003:checkmk_cloud_edition_22:2.2.9 2.2.9
x64 keyfactor_command_testdrive_vm certifiedsecuritysolutionsinc keyfactor_command_testdrive_vm certifiedsecuritysolutionsinc:keyfactor_command_testdrive_vm:keyfactor_command_testdrive_vm:1.1.2 1.1.2
x64 netscalervpx-130 citrix netscaler10standard citrix:netscalervpx-130:netscaler10standard:130.82.42 130.82.42
x64 almalinux9 perforce 9-gen2 perforce:almalinux9:9-gen2:9.1.2022120501 9.1.2022120501
x64 plesk-onyx-windows plesk plsk-win-hst-azr-m plesk:plesk-onyx-windows:plsk-win-hst-azr-m:18.0.54 18.0.54
x64 nginx-2 athinfosystems1641442221349 nginx athinfosystems1641442221349:nginx-2:nginx:1.25.0 1.25.0
x64 ob-web1 1585118004523 ob-nginx1 1585118004523:ob-web1:ob-nginx1:1.0.0 1.0.0
x64 docker-ce-linux-stream-9 tidalmediainc docker-ce-linux-stream-9 tidalmediainc:docker-ce-linux-stream-9:docker-ce-linux-stream-9:1.0.0 1.0.0
x64 vantage-teradata-database teradata teradata-database-enterprise-1620-594 teradata:vantage-teradata-database:teradata-database-enterprise-1620-594:2.4.1 2.4.1
x64 CentOS OpenLogic 8_4 OpenLogic:CentOS:8_4:8.4.2021071900 8.4.2021071900
x64 xgboost-on-debian11 apps-4-rent xgboost-on-debian11 apps-4-rent:xgboost-on-debian11:xgboost-on-debian11:0.0.1 0.0.1
x64 tkg-capi vmware-inc k8s-1dot21dot2-ubuntu-1804 vmware-inc:tkg-capi:k8s-1dot21dot2-ubuntu-1804:2021.06.28 2021.06.28
x64 pipelines-buildplane jfrog x86_64-centos_7 jfrog:pipelines-buildplane:x86_64-centos_7:1.16.8 1.16.8
x64 cis-debian-linux-11-l1 center-for-internet-security-inc cis-debian11-l1 center-for-internet-security-inc:cis-debian-linux-11-l1:cis-debian11-l1:1.0.8 1.0.8
x64 CentOS-HPC OpenLogic 7_6gen2 OpenLogic:CentOS-HPC:7_6gen2:7.6.2020100801 7.6.2020100801
x64 clockify-on-windows-server2016 apps-4-rent clockify-on-windows-server2016 apps-4-rent:clockify-on-windows-server2016:clockify-on-windows-server2016:1.0.0 1.0.0
x64 mx-enterprise-edition ndl with-sql ndl:mx-enterprise-edition:with-sql:1.1.3 1.1.3
x64 docker-advanced-linux-7-9-minimal articentgroupllc1635512619530 docker-advanced-linux-7-9-minimal articentgroupllc1635512619530:docker-advanced-linux-7-9-minimal:docker-advanced-linux-7-9-minimal:1.0.0 1.0.0
x64 netapp-ontap-cloud-internal-2 netapp ontap_9150x1_byol_ha netapp:netapp-ontap-cloud-internal-2:ontap_9150x1_byol_ha:9.150.230922 9.150.230922
x64 nexpose-scan-engine rapid7 nexpose-scan-engine rapid7:nexpose-scan-engine:nexpose-scan-engine:6.5.98 6.5.98
x64 CentOS-LVM OpenLogic 7-lvm-gen2 OpenLogic:CentOS-LVM:7-lvm-gen2:7.8.2020111101 7.8.2020111101
x64 windows_2022_gen2_wsl ntegralinc1586961136942 windows_2022_gen2_wsl ntegralinc1586961136942:windows_2022_gen2_wsl:windows_2022_gen2_wsl:1.0.0 1.0.0
x64 cdp-7_2_15 cloudera runtime-7_2_15 cloudera:cdp-7_2_15:runtime-7_2_15:10.38429113.1677783603 10.38429113.1677783603
x64 zali-test-mpterms-win mathworks-inc matlab-parallel-server-ref-arch-r2023b-vm-win-sku mathworks-inc:zali-test-mpterms-win:matlab-parallel-server-ref-arch-r2023b-vm-win-sku:1.0.8 1.0.8
x64 hpcbox-su2-cluster-master drizti 0-0-5 drizti:hpcbox-su2-cluster-master:0-0-5:2.0.2 2.0.2
x64 netscalervpx-130 citrix netscalerbyol citrix:netscalervpx-130:netscalerbyol:130.79.64 130.79.64
x64 vidizmo-highavailability-servers vidizmo vidizmo-database vidizmo:vidizmo-highavailability-servers:vidizmo-database:5.5.119 5.5.119
x64 python-2-with-ubuntu-20-04-lts cognosys python-2-with-ubuntu-20-04-lts cognosys:python-2-with-ubuntu-20-04-lts:python-2-with-ubuntu-20-04-lts:22.04.06 22.04.06
x64 configuration_manager puppeteersoy1601024480557 supported_plan puppeteersoy1601024480557:configuration_manager:supported_plan:3.1.0 3.1.0
x64 vfunction_cmm vfunctiontechnologiesltd1665073911806 aoplus5k vfunctiontechnologiesltd1665073911806:vfunction_cmm:aoplus5k:2.8.942 2.8.942
x64 neo4j Bitnami default Bitnami:neo4j:default:5.17.2113440994 5.17.2113440994
x64 flatcar-container-linux kinvolk stable-gen2 kinvolk:flatcar-container-linux:stable-gen2:3227.2.4 3227.2.4
x64 vm_offer_data_collect energisme1601990637842 payg_plan_datacollect_nifi_ha_111 energisme1601990637842:vm_offer_data_collect:payg_plan_datacollect_nifi_ha_111:1.5.2 1.5.2
x64 netscalervpx-131 citrix netscaler200enterprise citrix:netscalervpx-131:netscaler200enterprise:131.33.47 131.33.47
x64 flatcar-container-linux-free kinvolk stable-gen2 kinvolk:flatcar-container-linux-free:stable-gen2:3510.2.5 3510.2.5
x64 sles-15-sp4-hardened-byos SUSE gen1 SUSE:sles-15-sp4-hardened-byos:gen1:2023.12.14 2023.12.14
x64 cohesive-vns3-5_0_x-nate cohesive cohesive-vns3-nate-free-5_2_x cohesive:cohesive-vns3-5_0_x-nate:cohesive-vns3-nate-free-5_2_x:5.2.0401 5.2.0401
x64 fortinet_fortisandbox_vm fortinet fortinet_fsa-vm_payg fortinet:fortinet_fortisandbox_vm:fortinet_fsa-vm_payg:3.1.00 3.1.00
Arm64 flatcar-container-linux-corevm kinvolk alpha kinvolk:flatcar-container-linux-corevm:alpha:3619.0.0 3619.0.0
x64 krakend-vm brutale krakend-ce brutale:krakend-vm:krakend-ce:2.4.0 2.4.0
x64 CentOS OpenLogic 7_9-gen2 OpenLogic:CentOS:7_9-gen2:7.9.2021071901 7.9.2021071901
x64 apahe2019 globalsolutions apache2019 globalsolutions:apahe2019:apache2019:1.0.0 1.0.0
x64 visual-studio-code-dot-net-windows-ser-2019-devops devopsimages visual-studio-code-dot-net-windows-ser-2019-devops devopsimages:visual-studio-code-dot-net-windows-ser-2019-devops:visual-studio-code-dot-net-windows-ser-2019-devops:8.0.2 8.0.2
x64 hmail-server-windows-server-2016-datacenter articentgroupllc1635512619530 hmail-server-windows-server-2016-datacenter articentgroupllc1635512619530:hmail-server-windows-server-2016-datacenter:hmail-server-windows-server-2016-datacenter:1.0.0 1.0.0
x64 almalinux-os-8 nuvemnestllc1695391252715 almalinux-os-8 nuvemnestllc1695391252715:almalinux-os-8:almalinux-os-8:8.0.0 8.0.0
x64 influxdb-server-linux-stream-8 articentgroupllc1635512619530 influxdb-server-linux-stream-8 articentgroupllc1635512619530:influxdb-server-linux-stream-8:influxdb-server-linux-stream-8:1.0.0 1.0.0
x64 testlink2022 globalsolutions testlink2022 globalsolutions:testlink2022:testlink2022:1.0.0 1.0.0
x64 f5-big-ip-good f5-networks f5-bigip-virtual-edition-1g-good-hourly f5-networks:f5-big-ip-good:f5-bigip-virtual-edition-1g-good-hourly:16.1.401053 16.1.401053
x64 debian_10_openvpn virtualpulsesro1607008728942 debian_10_openvpn virtualpulsesro1607008728942:debian_10_openvpn:debian_10_openvpn:1.0.0 1.0.0
x64 tkg-capi vmware-inc k8s-1dot22dot9-fips-ubuntu-1804 vmware-inc:tkg-capi:k8s-1dot22dot9-fips-ubuntu-1804:2022.05.31 2022.05.31
x64 opencast-video-processing-for-edu-ubuntu-20-04 tidalmediainc opencast-video-processing-for-edu-ubuntu-20-04 tidalmediainc:opencast-video-processing-for-edu-ubuntu-20-04:opencast-video-processing-for-edu-ubuntu-20-04:1.0.0 1.0.0
x64 capi cncf-upstream ubuntu-2004-gen1 cncf-upstream:capi:ubuntu-2004-gen1:127.5.20230830 127.5.20230830
x64 jitsi-linux-stream-8 articentgroupllc1635512619530 jitsi-linux-stream-8 articentgroupllc1635512619530:jitsi-linux-stream-8:jitsi-linux-stream-8:1.0.0 1.0.0
x64 sftp-openssh-ftp-server-suse-enterprise-15-minimal tidalmediainc sftp-openssh-ftp-server-suse-enterprise-15-minimal tidalmediainc:sftp-openssh-ftp-server-suse-enterprise-15-minimal:sftp-openssh-ftp-server-suse-enterprise-15-minimal:1.0.0 1.0.0
x64 ubuntu_18_04_ackee_web_traffic_analytics virtualpulsesro1607008728942 ubuntu_18_04_ackee_web_traffic_analytics virtualpulsesro1607008728942:ubuntu_18_04_ackee_web_traffic_analytics:ubuntu_18_04_ackee_web_traffic_analytics:1.0.0 1.0.0
x64 euc-hcs-uag-sig-test vmware-inc euc-hcs-uag-test-dev vmware-inc:euc-hcs-uag-sig-test:euc-hcs-uag-test-dev:23.12.2 23.12.2
x64 CentOS-HPC OpenLogic 7_7-gen2 OpenLogic:CentOS-HPC:7_7-gen2:7.7.2020042001 7.7.2020042001
x64 heimdall-data heimdall-data heimdall-enterprise-plus heimdall-data:heimdall-data:heimdall-enterprise-plus:23.02.15 23.02.15
x64 firebird-3-0-server-debian-11-minimal articentgroupllc1635512619530 firebird-3-0-server-debian-11-minimal articentgroupllc1635512619530:firebird-3-0-server-debian-11-minimal:firebird-3-0-server-debian-11-minimal:1.0.0 1.0.0
x64 qubole-data-service qubole-inc default-img qubole-inc:qubole-data-service:default-img:0.6.6 0.6.6
x64 centos-8-4-basic-server tidalmediainc centos-8-4-basic-server tidalmediainc:centos-8-4-basic-server:centos-8-4-basic-server:1.0.0 1.0.0
x64 ejabberd-community-edition process-one ejabberd-debian process-one:ejabberd-community-edition:ejabberd-debian:17.1.0 17.1.0
x64 netscalervpx-130 citrix netscaler3000standard citrix:netscalervpx-130:netscaler3000standard:130.67.43 130.67.43
x64 flatcar-container-linux kinvolk lts2022-gen2 kinvolk:flatcar-container-linux:lts2022-gen2:3033.3.17 3033.3.17
x64 vantage-teradata-database teradata teradata-database-advanced-1620-248 teradata:vantage-teradata-database:teradata-database-advanced-1620-248:2.4.0 2.4.0
x64 almalinux-8-latest procomputers almalinux-8-latest procomputers:almalinux-8-latest:almalinux-8-latest:8.7.20221130 8.7.20221130
x64 internal-avi-vantage-adc avi-networks avi-vantage-private-test avi-networks:internal-avi-vantage-adc:avi-vantage-private-test:21.1.1 21.1.1
x64 netscalervpx-121 citrix netscaler1000platinum citrix:netscalervpx-121:netscaler1000platinum:121.63.24 121.63.24
x64 pipelines-buildplane jfrog x86_64-ubuntu_18_04 jfrog:pipelines-buildplane:x86_64-ubuntu_18_04:1.4.0 1.4.0
x64 riva-vmi nvidia riva_gpu_4-gen2 nvidia:riva-vmi:riva_gpu_4-gen2:2023.06.3 2023.06.3
x64 flatcar-container-linux-free kinvolk beta-gen2 kinvolk:flatcar-container-linux-free:beta-gen2:3602.1.6 3602.1.6
x64 nginxstack Bitnami 1-9 Bitnami:nginxstack:1-9:1.25.2113298241 1.25.2113298241
x64 mono-on-ubuntu apps-4-rent mono-on-ubuntu apps-4-rent:mono-on-ubuntu:mono-on-ubuntu:1.0.0 1.0.0
x64 putty-on-windows2019 apps-4-rent putty-on-windows2019 apps-4-rent:putty-on-windows2019:putty-on-windows2019:0.0.1 0.0.1
x64 genuwaf_image_node genua_gmbh private genua_gmbh:genuwaf_image_node:private:0.0.23 0.0.23
x64 nw-suite-12-0-0-0 rsa-security-llc nw-suite-12-0-0-0 rsa-security-llc:nw-suite-12-0-0-0:nw-suite-12-0-0-0:12.0.0 12.0.0
x64 piwik-iis8-mysql-win2012-r2 cognosys piwik-iis8-mysql-win2012-r2 cognosys:piwik-iis8-mysql-win2012-r2:piwik-iis8-mysql-win2012-r2:1.3.2 1.3.2
x64 centos-7-7 procomputers centos-7-7 procomputers:centos-7-7:centos-7-7:7.7.20190909 7.7.20190909
x64 mean Bitnami 3-2 Bitnami:mean:3-2:7.0.2113328761 7.0.2113328761
x64 matillion-etl-snowflake matillion matillion-etl-snowflake-byol matillion:matillion-etl-snowflake:matillion-etl-snowflake-byol:1.73.0 1.73.0
x64 syncfusion-bigdata-sandbox syncfusionbigdataplatfor syncfusionbigdatasandbox syncfusionbigdataplatfor:syncfusion-bigdata-sandbox:syncfusionbigdatasandbox:1.0.2 1.0.2
x64 netscalervpx-130 citrix netscaler3000enterprise citrix:netscalervpx-130:netscaler3000enterprise:130.85.19 130.85.19
x64 cloudeos-router-byol arista-networks cloudeos-4_27_3-byol arista-networks:cloudeos-router-byol:cloudeos-4_27_3-byol:4.27.3 4.27.3
x64 trac-system-server-oracle-8-6-minimal articentgroupllc1635512619530 trac-system-server-oracle-8-6-minimal articentgroupllc1635512619530:trac-system-server-oracle-8-6-minimal:trac-system-server-oracle-8-6-minimal:1.0.0 1.0.0
x64 chef-workstation-docker-gradle-ubuntu-2204 apps-4-rent chef-workstation-docker-engine-gradle-ubuntu-2204 apps-4-rent:chef-workstation-docker-gradle-ubuntu-2204:chef-workstation-docker-engine-gradle-ubuntu-2204:11.0.17 11.0.17
x64 check-point-cg-r8020-blink-v2 checkpoint sg-ngtp checkpoint:check-point-cg-r8020-blink-v2:sg-ngtp:8020.90005.0378 8020.90005.0378
x64 debian_11_min_squid_auth virtualpulsesro1607008728942 debian_11_min_squid_auth virtualpulsesro1607008728942:debian_11_min_squid_auth:debian_11_min_squid_auth:1.0.0 1.0.0
x64 secured-django-on-ubuntu-14-04-lts cognosys new-secured-django-on-ubuntu cognosys:secured-django-on-ubuntu-14-04-lts:new-secured-django-on-ubuntu:22.03.28 22.03.28
x64 u250_2022_1_ubuntu1804_deployment_image xilinx alveo_u250_deployment_vm_xrt2022_1_ubuntu_1804 xilinx:u250_2022_1_ubuntu1804_deployment_image:alveo_u250_deployment_vm_xrt2022_1_ubuntu_1804:11.04.2022 11.04.2022
x64 manageengine-recoverymanager-plus manageengine recoverymanagerplus manageengine:manageengine-recoverymanager-plus:recoverymanagerplus:1.1.1 1.1.1
x64 flatcar-container-linux kinvolk beta kinvolk:flatcar-container-linux:beta:3139.1.1 3139.1.1
x64 nginx_plus_with_nginx_app_protect_developer nginxinc nginx_plus_with_nginx_app_protect_dev_debian11 nginxinc:nginx_plus_with_nginx_app_protect_developer:nginx_plus_with_nginx_app_protect_dev_debian11:3.1.0 3.1.0
x64 patch_tuesday_test_1 test_test_mix3pptest0011614206850774 plan1 test_test_mix3pptest0011614206850774:patch_tuesday_test_1:plan1:2.0.0 2.0.0
x64 nginx-plus-ent-v1 nginxinc nginx-plus-ent-rhel8-po-0 nginxinc:nginx-plus-ent-v1:nginx-plus-ent-rhel8-po-0:4.0.0 4.0.0
x64 moveit-transfer-vm progresssoftwarecorporation moveit-transfer-starter progresssoftwarecorporation:moveit-transfer-vm:moveit-transfer-starter:1.6.6 1.6.6
x64 sql-server-2017-win2016-debug-utilities cognosys sql-server-2017-ent-win2016-debug-utilities cognosys:sql-server-2017-win2016-debug-utilities:sql-server-2017-ent-win2016-debug-utilities:1.0.2 1.0.2
x64 filemage-gateway-vm filemagellc filemage-gateway-vm-005 filemagellc:filemage-gateway-vm:filemage-gateway-vm-005:1.13.1 1.13.1
x64 hortonworks-sandbox hortonworks sandbox26 hortonworks:hortonworks-sandbox:sandbox26:2.6.4 2.6.4
x64 matillion-etl-snowflake matillion matillion-etl-snowflake-byol matillion:matillion-etl-snowflake:matillion-etl-snowflake-byol:1.71.0 1.71.0
x64 multi-port-forward-server fatalsecurity1604924013537 r502 fatalsecurity1604924013537:multi-port-forward-server:r502:5.0.2 5.0.2
x64 sles-sap-15-sp4-byos SUSE gen2 SUSE:sles-sap-15-sp4-byos:gen2:2023.12.14 2023.12.14
x64 redash-ubuntu-server-20-04lts askforcloudllc1651766049149 redash-ubuntu-server-20-04lts askforcloudllc1651766049149:redash-ubuntu-server-20-04lts:redash-ubuntu-server-20-04lts:0.0.1 0.0.1
x64 netscalervpx-141 citrix netscaler200standard citrix:netscalervpx-141:netscaler200standard:141.12.35 141.12.35
x64 nexus-uk-driving-license-extractor nexusfrontiertechlimited1660561594678 drivinglicenseplan1 nexusfrontiertechlimited1660561594678:nexus-uk-driving-license-extractor:drivinglicenseplan1:2.1.0 2.1.0
x64 ntg_oracle_7_8 ntegralinc1586961136942 ntg_oracle_7_8 ntegralinc1586961136942:ntg_oracle_7_8:ntg_oracle_7_8:1.0.1 1.0.1
x64 joomla Bitnami 3-5 Bitnami:joomla:3-5:5.0.2113373446 5.0.2113373446
x64 gitea-repository-ubuntu-server-20-04lts askforcloudllc1651766049149 gitea-repository-ubuntu-server-20-04lts askforcloudllc1651766049149:gitea-repository-ubuntu-server-20-04lts:gitea-repository-ubuntu-server-20-04lts:1.17.3 1.17.3
x64 check-point-cg-r8040 checkpoint sg-ngtx checkpoint:check-point-cg-r8040:sg-ngtx:8040.900294.1498 8040.900294.1498
x64 jupyterhub-ml datasciencedojo1586563145740 mlplanbasic datasciencedojo1586563145740:jupyterhub-ml:mlplanbasic:1.0.0 1.0.0
x64 cis-rhel-8-l1 center-for-internet-security-inc cis-rhel8-l1 center-for-internet-security-inc:cis-rhel-8-l1:cis-rhel8-l1:2.0.18 2.0.18
x64 apache-subversion-ubuntu-18-04-minimal articentgroupllc1635512619530 apache-subversion-ubuntu-18-04-minimal articentgroupllc1635512619530:apache-subversion-ubuntu-18-04-minimal:apache-subversion-ubuntu-18-04-minimal:1.0.0 1.0.0
x64 4d4002f6-1a6a-453d-853c-277d2d9d2b39 cloudimg1647283583153 4d4002f6-1a6a-453d-853c-277d2d9d2b39 cloudimg1647283583153:4d4002f6-1a6a-453d-853c-277d2d9d2b39:4d4002f6-1a6a-453d-853c-277d2d9d2b39:1.0.0 1.0.0
x64 manager-proxy-4-3-byos SUSE gen1 SUSE:manager-proxy-4-3-byos:gen1:2024.02.07 2024.02.07
x64 numpy-pandas-scikit-learn-debian-11 apps-4-rent numpy-pandas-scikit-learn-debian-11 apps-4-rent:numpy-pandas-scikit-learn-debian-11:numpy-pandas-scikit-learn-debian-11:1.0.7 1.0.7
x64 vm_offer_digdash energisme1601990637842 standard energisme1601990637842:vm_offer_digdash:standard:2.3.1 2.3.1
x64 genymotion-cloud genymobile genymotion-7-0 genymobile:genymotion-cloud:genymotion-7-0:13.2.0 13.2.0
x64 azhop-desktop azhpc almalinux-8_7 azhpc:azhop-desktop:almalinux-8_7:2023.0612.1534 2023.0612.1534
x64 ubuntu-minimal-18-04 cloud-infrastructure-services ubuntu-minimal-18-04 cloud-infrastructure-services:ubuntu-minimal-18-04:ubuntu-minimal-18-04:0.0.1 0.0.1
x64 packer-linux-8 tidalmediainc packer-linux-8 tidalmediainc:packer-linux-8:packer-linux-8:1.0.0 1.0.0
x64 rh-rhel redhat-limited rh-rhel9-gen1 redhat-limited:rh-rhel:rh-rhel9-gen1:9.3.2024031214 9.3.2024031214
x64 vantage-teradata-database-intellisphere teradata teradata-database-enterprise-1620-ls teradata:vantage-teradata-database-intellisphere:teradata-database-enterprise-1620-ls:2.2.1 2.2.1
x64 gitlab Bitnami 8-5 Bitnami:gitlab:8-5:16.8.2113397727 16.8.2113397727
x64 centos-8-cw cloudwhizsolutions centos-8-cw cloudwhizsolutions:centos-8-cw:centos-8-cw:22.03.21 22.03.21
x64 hpcbox-mu-cluster-head-node drizti 1-0-0-byol drizti:hpcbox-mu-cluster-head-node:1-0-0-byol:3.0.2 3.0.2
x64 check-point-cg-r8110 checkpoint sg-ngtp checkpoint:check-point-cg-r8110:sg-ngtp:8110.900335.1266 8110.900335.1266
x64 capi cncf-upstream ubuntu-2204-gen1 cncf-upstream:capi:ubuntu-2204-gen1:127.5.20230829 127.5.20230829
x64 a10-vthunder-adc-20mbps a10networks a10-vthunder-adc-601-20mbps a10networks:a10-vthunder-adc-20mbps:a10-vthunder-adc-601-20mbps:6.0.1 6.0.1
x64 ejbca_enterprise_cloud_edition_private_vhd primekey ejbca_enterprise_8x5 primekey:ejbca_enterprise_cloud_edition_private_vhd:ejbca_enterprise_8x5:3.4.5 3.4.5
x64 codenvy-on-prem codenvy code-team-op-byol codenvy:codenvy-on-prem:code-team-op-byol:1.0.1 1.0.1
x64 sles-sap-15-sp4-hardened SUSE gen2 SUSE:sles-sap-15-sp4-hardened:gen2:2023.03.22 2023.03.22
x64 julia-on-ubuntu20 apps-4-rent julia-on-ubuntu20 apps-4-rent:julia-on-ubuntu20:julia-on-ubuntu20:0.0.1 0.0.1
x64 cis-ubuntu-linux-2004-stig center-for-internet-security-inc cis-ubuntu-linux2004-stig-azure-observability-team center-for-internet-security-inc:cis-ubuntu-linux-2004-stig:cis-ubuntu-linux2004-stig-azure-observability-team:2.0.3 2.0.3
x64 centos-75 cognosys centos-75 cognosys:centos-75:centos-75:23.08.06 23.08.06
x64 sdkms-sgx-vhd fortanix non-sgx-plan fortanix:sdkms-sgx-vhd:non-sgx-plan:4.9.21022328 4.9.21022328
x64 snaplogic-elastic-integration-windows snaplogic plex-azure-win snaplogic:snaplogic-elastic-integration-windows:plex-azure-win:3.0.0 3.0.0
x64 cis-windows-server center-for-internet-security-inc cis-windows-server2019-l2-gen1 center-for-internet-security-inc:cis-windows-server:cis-windows-server2019-l2-gen1:2.0.7 2.0.7
x64 netscalervpx-131 citrix netscaler5000standard citrix:netscalervpx-131:netscaler5000standard:131.12.51 131.12.51
x64 check-point-cg-r8030 checkpoint sg-ngtp-v2 checkpoint:check-point-cg-r8030:sg-ngtp-v2:8030.900273.0801 8030.900273.0801
x64 matlab-ref-arch-18a-v1-linux-disk mathworks-inc matlab-ref-arch-r2023a-vm-linux-sku mathworks-inc:matlab-ref-arch-18a-v1-linux-disk:matlab-ref-arch-r2023a-vm-linux-sku:1.0.2 1.0.2
x64 almalnx-8-minimal procomputers almalinux-8-minimal procomputers:almalnx-8-minimal:almalinux-8-minimal:8.4.20210601 8.4.20210601
x64 flink Bitnami default Bitnami:flink:default:1.18.2113437021 1.18.2113437021
x64 freeipa-1_0 cloudera freeipa cloudera:freeipa-1_0:freeipa:1.0.1688948247 1.0.1688948247
x64 ejabberd-community-edition process-one ejabberd-ubuntu process-one:ejabberd-community-edition:ejabberd-ubuntu:17.1.0 17.1.0
x64 rhel-8 procomputers rhel-8-5 procomputers:rhel-8:rhel-8-5:8.5.2021101303 8.5.2021101303
x64 drupal-on-windows2022 apps-4-rent drupal-on-windows2022 apps-4-rent:drupal-on-windows2022:drupal-on-windows2022:1.0.0 1.0.0
x64 netscalervpx-141 citrix netscaler5000standard citrix:netscalervpx-141:netscaler5000standard:141.4.42 141.4.42
x64 weblogic-141100-jdk11-ol76 Oracle owls-141100-jdk11-ol76 Oracle:weblogic-141100-jdk11-ol76:owls-141100-jdk11-ol76:1.1.5 1.1.5
x64 cassandra-centos cloud-infrastructure-services cassandra-centos-8 cloud-infrastructure-services:cassandra-centos:cassandra-centos-8:0.0.1 0.0.1
x64 nvmesh-azure-205-001 excelero1608461290726 nvmesh-hot-capacity_centos_8-3_gen2_test excelero1608461290726:nvmesh-azure-205-001:nvmesh-hot-capacity_centos_8-3_gen2_test:1.0.2 1.0.2
x64 f5-big-ip-better f5-networks f5-bigip-virtual-edition-5g-better-hourly-po-f5 f5-networks:f5-big-ip-better:f5-bigip-virtual-edition-5g-better-hourly-po-f5:17.1.101000 17.1.101000
x64 euc-hcs-uag vmware-inc euc-hcs-uag vmware-inc:euc-hcs-uag:euc-hcs-uag:23.09.0 23.09.0
x64 apache_with_rimauwaf tunnelbiz almalinux_rimauwaf tunnelbiz:apache_with_rimauwaf:almalinux_rimauwaf:3.0.3 3.0.3
x64 report-server-vm syncfusion -bring-your-own-license syncfusion:report-server-vm:-bring-your-own-license:2.3.77 2.3.77
